; G-Code generated by Simplify3D(R) Version 4.1.2
; Jun 28, 2021 at 8:14:00 PM
; Settings Summary
;   processName,Process1
;   applyToModels,RPi 4 Case
;   profileName,Creality Ender 3 (modified)
;   profileVersion,2018-07-11 08:00:00
;   baseProfile,
;   printMaterial,PLA
;   printQuality,High
;   printExtruders,
;   extruderName,Primary Extruder
;   extruderToolheadNumber,0
;   extruderDiameter,0.4
;   extruderAutoWidth,0
;   extruderWidth,0.4
;   extrusionMultiplier,0.9
;   extruderUseRetract,1
;   extruderRetractionDistance,4
;   extruderExtraRestartDistance,0
;   extruderRetractionZLift,0
;   extruderRetractionSpeed,2400
;   extruderUseCoasting,0
;   extruderCoastingDistance,0.2
;   extruderUseWipe,0
;   extruderWipeDistance,5
;   primaryExtruder,0
;   layerHeight,0.1
;   topSolidLayers,4
;   bottomSolidLayers,4
;   perimeterOutlines,2
;   printPerimetersInsideOut,1
;   startPointOption,2
;   startPointOriginX,0
;   startPointOriginY,0
;   sequentialIslands,0
;   spiralVaseMode,0
;   firstLayerHeightPercentage,120
;   firstLayerWidthPercentage,150
;   firstLayerUnderspeed,0.5
;   useRaft,0
;   raftExtruder,0
;   raftTopLayers,3
;   raftBaseLayers,2
;   raftOffset,3
;   raftSeparationDistance,0.14
;   raftTopInfill,100
;   aboveRaftSpeedMultiplier,0.3
;   useSkirt,0
;   skirtExtruder,0
;   skirtLayers,2
;   skirtOutlines,2
;   skirtOffset,4
;   usePrimePillar,0
;   primePillarExtruder,999
;   primePillarWidth,12
;   primePillarLocation,7
;   primePillarSpeedMultiplier,1
;   useOozeShield,0
;   oozeShieldExtruder,999
;   oozeShieldOffset,2
;   oozeShieldOutlines,1
;   oozeShieldSidewallShape,1
;   oozeShieldSidewallAngle,30
;   oozeShieldSpeedMultiplier,1
;   infillExtruder,0
;   internalInfillPattern,Rectilinear
;   externalInfillPattern,Rectilinear
;   infillPercentage,30
;   outlineOverlapPercentage,15
;   infillExtrusionWidthPercentage,100
;   minInfillLength,5
;   infillLayerInterval,1
;   internalInfillAngles,45,-45
;   overlapInternalInfillAngles,0
;   externalInfillAngles,45,-45
;   generateSupport,0
;   supportExtruder,0
;   supportInfillPercentage,40
;   supportExtraInflation,0
;   supportBaseLayers,0
;   denseSupportExtruder,0
;   denseSupportLayers,0
;   denseSupportInfillPercentage,70
;   supportLayerInterval,1
;   supportHorizontalPartOffset,0.3
;   supportUpperSeparationLayers,1
;   supportLowerSeparationLayers,1
;   supportType,0
;   supportGridSpacing,4
;   maxOverhangAngle,45
;   supportAngles,0
;   temperatureName,Primary Extruder,Heated Bed
;   temperatureNumber,0,0
;   temperatureSetpointCount,1,1
;   temperatureSetpointLayers,1,1
;   temperatureSetpointTemperatures,205,60
;   temperatureStabilizeAtStartup,1,1
;   temperatureHeatedBed,0,1
;   fanLayers,1,2
;   fanSpeeds,0,100
;   blipFanToFullPower,0
;   adjustSpeedForCooling,1
;   minSpeedLayerTime,15
;   minCoolingSpeedSlowdown,20
;   increaseFanForCooling,0
;   minFanLayerTime,45
;   maxCoolingFanSpeed,100
;   increaseFanForBridging,0
;   bridgingFanSpeed,100
;   use5D,1
;   relativeEdistances,0
;   allowEaxisZeroing,1
;   independentExtruderAxes,0
;   includeM10123,0
;   stickySupport,1
;   applyToolheadOffsets,0
;   gcodeXoffset,0
;   gcodeYoffset,0
;   gcodeZoffset,0
;   overrideMachineDefinition,1
;   machineTypeOverride,0
;   strokeXoverride,220
;   strokeYoverride,220
;   strokeZoverride,250
;   originOffsetXoverride,-5
;   originOffsetYoverride,-5
;   originOffsetZoverride,0
;   homeXdirOverride,-1
;   homeYdirOverride,-1
;   homeZdirOverride,-1
;   flipXoverride,1
;   flipYoverride,-1
;   flipZoverride,1
;   toolheadOffsets,0,0|0,0|0,0|0,0|0,0|0,0
;   overrideFirmwareConfiguration,1
;   firmwareTypeOverride,RepRap (Marlin/Repetier/Sprinter)
;   GPXconfigOverride,r2
;   baudRateOverride,115200
;   overridePrinterModels,1
;   printerModelsOverride
;   startingGcode,G28 ; home all axes,G1 X5 Y10 Z0.2 F3000 ; get ready to prime,G92 E0 ; reset extrusion distance,G1 X160 E15 F600 ; prime nozzle,G1 X180 F5000 ; quick wipe
;   layerChangeGcode,
;   retractionGcode,
;   toolChangeGcode,
;   endingGcode,G28 X0 ; home X axis,M106 S0 ; turn off cooling fan,M104 S0 ; turn off extruder,M140 S0 ; turn off bed,M84 ; disable motors
;   exportFileFormat,gcode
;   celebration,0
;   celebrationSong,Random Song
;   postProcessing,
;   defaultSpeed,2400
;   outlineUnderspeed,0.5
;   solidInfillUnderspeed,0.8
;   supportUnderspeed,0.8
;   rapidXYspeed,4800
;   rapidZspeed,1000
;   minBridgingArea,50
;   bridgingExtraInflation,0
;   bridgingExtrusionMultiplier,1
;   bridgingSpeedMultiplier,1
;   useFixedBridgingAngle,0
;   fixedBridgingAngle,0
;   applyBridgingToPerimeters,0
;   filamentDiameters,1.75|1.75|1.75|1.75|1.75|1.75
;   filamentPricesPerKg,46|46|46|46|46|46
;   filamentDensities,1.25|1.25|1.25|1.25|1.25|1.25
;   useMinPrintHeight,0
;   minPrintHeight,0
;   useMaxPrintHeight,0
;   maxPrintHeight,0
;   useDiaphragm,0
;   diaphragmLayerInterval,20
;   robustSlicing,1
;   mergeAllIntoSolid,0
;   onlyRetractWhenCrossingOutline,1
;   retractBetweenLayers,1
;   useRetractionMinTravel,1
;   retractionMinTravel,7
;   retractWhileWiping,0
;   onlyWipeOutlines,1
;   avoidCrossingOutline,0
;   maxMovementDetourFactor,3
;   toolChangeRetractionDistance,12
;   toolChangeExtraRestartDistance,-0.5
;   toolChangeRetractionSpeed,600
;   externalThinWallType,0
;   internalThinWallType,2
;   thinWallAllowedOverlapPercentage,10
;   singleExtrusionMinLength,1
;   singleExtrusionMinPrintingWidthPercentage,50
;   singleExtrusionMaxPrintingWidthPercentage,200
;   singleExtrusionEndpointExtension,0.2
;   horizontalSizeCompensation,0
G90
M82
M106 S0
M140 S60
M190 S60
M104 S205 T0
M109 S205 T0
G28 ; home all axes
G1 X5 Y10 Z0.2 F3000 ; get ready to prime
G92 E0 ; reset extrusion distance
G1 X160 E15 F600 ; prime nozzle
G1 X180 F5000 ; quick wipe
; process Process1
; layer 1, Z = 0.120
T0
G92 E0.0000
G1 E-4.0000 F2400
; feature inner perimeter
; tool H0.120 W0.600
G1 Z0.120 F1000
G1 X87.906 Y71.150 F4800
G1 E0.0000 F2400
G92 E0.0000
G1 X142.100 Y71.150 E1.4600 F900
G1 X142.100 Y73.650 E1.5274
G1 X144.100 Y73.650 E1.5813
G1 X144.100 Y158.850 E3.8766
G1 X85.900 Y158.850 E5.4446
G1 X85.900 Y73.650 E7.7399
G1 X87.897 Y73.650 E7.7937
G1 X87.906 Y71.150 E7.8611
; feature outer perimeter
G1 X87.308 Y70.550 F4800
G92 E0.0000
G1 X142.700 Y70.550 E1.4923 F600
G1 X142.700 Y73.050 E1.5597
G1 X144.700 Y73.050 E1.6135
G1 X144.700 Y159.450 E3.9412
G1 X85.300 Y159.450 E5.5415
G1 X85.300 Y73.050 E7.8692
G1 X87.299 Y73.050 E7.9230
G1 X87.308 Y70.550 E7.9904
; feature inner perimeter
G1 X90.039 Y93.636 F4800
G92 E0.0000
G1 X89.530 Y93.779 E0.0142 F900
G1 X89.060 Y94.020 E0.0285
G1 X88.646 Y94.350 E0.0427
G1 X88.307 Y94.755 E0.0570
G1 X88.054 Y95.219 E0.0712
G1 X87.901 Y95.713 E0.0851
G1 X87.849 Y96.129 E0.0964
G1 X87.875 Y96.646 E0.1104
G1 X88.006 Y97.158 E0.1246
G1 X88.235 Y97.634 E0.1388
G1 X88.554 Y98.056 E0.1531
G1 X88.950 Y98.405 E0.1673
G1 X89.408 Y98.670 E0.1816
G1 X89.909 Y98.838 E0.1958
G1 X90.434 Y98.904 E0.2101
G1 X90.961 Y98.864 E0.2243
G1 X91.470 Y98.721 E0.2385
G1 X91.940 Y98.480 E0.2528
G1 X92.345 Y98.157 E0.2667
G1 X92.622 Y97.843 E0.2780
G1 X92.892 Y97.402 E0.2919
G1 X93.072 Y96.905 E0.3062
G1 X93.153 Y96.371 E0.3207
G1 X93.105 Y95.735 E0.3379
G1 X92.946 Y95.219 E0.3525
G1 X92.693 Y94.755 E0.3667
G1 X92.353 Y94.350 E0.3809
G1 X91.949 Y94.027 E0.3949
G1 X91.581 Y93.827 E0.4062
G1 X91.091 Y93.662 E0.4201
G1 X90.566 Y93.596 E0.4343
G1 X90.039 Y93.636 E0.4486
; feature outer perimeter
G1 X90.144 Y94.230 F4800
G92 E0.0000
G1 X89.751 Y94.340 E0.0110 F600
G1 X89.387 Y94.527 E0.0220
G1 X89.068 Y94.781 E0.0330
G1 X88.805 Y95.094 E0.0440
G1 X88.610 Y95.453 E0.0550
G1 X88.490 Y95.840 E0.0659
G1 X88.451 Y96.151 E0.0744
G1 X88.471 Y96.556 E0.0853
G1 X88.572 Y96.952 E0.0963
G1 X88.749 Y97.320 E0.1073
G1 X88.996 Y97.645 E0.1183
G1 X89.302 Y97.916 E0.1293
G1 X89.656 Y98.120 E0.1403
G1 X90.043 Y98.250 E0.1513
G1 X90.449 Y98.301 E0.1623
G1 X90.856 Y98.270 E0.1733
G1 X91.249 Y98.160 E0.1844
G1 X91.613 Y97.973 E0.1954
G1 X91.929 Y97.721 E0.2063
G1 X92.137 Y97.485 E0.2147
G1 X92.348 Y97.140 E0.2256
G1 X92.488 Y96.756 E0.2366
G1 X92.550 Y96.349 E0.2477
G1 X92.512 Y95.847 E0.2613
G1 X92.390 Y95.453 E0.2724
G1 X92.195 Y95.094 E0.2834
G1 X91.932 Y94.781 E0.2944
G1 X91.616 Y94.529 E0.3053
G1 X91.340 Y94.379 E0.3138
G1 X90.957 Y94.250 E0.3247
G1 X90.551 Y94.199 E0.3357
G1 X90.144 Y94.230 E0.3467
; feature inner perimeter
G1 X136.849 Y96.118 F4800
G92 E0.0000
G1 X136.875 Y96.646 E0.0142 F900
G1 X137.006 Y97.158 E0.0285
G1 X137.235 Y97.634 E0.0427
G1 X137.554 Y98.055 E0.0570
G1 X137.950 Y98.405 E0.0712
G1 X138.408 Y98.670 E0.0854
G1 X138.909 Y98.838 E0.0997
G1 X139.434 Y98.904 E0.1139
G1 X139.961 Y98.864 E0.1282
G1 X140.470 Y98.721 E0.1424
G1 X140.940 Y98.480 E0.1567
G1 X141.353 Y98.150 E0.1709
G1 X141.693 Y97.745 E0.1851
G1 X141.941 Y97.291 E0.1991
G1 X142.074 Y96.894 E0.2104
G1 X142.153 Y96.371 E0.2246
G1 X142.105 Y95.735 E0.2418
G1 X141.946 Y95.219 E0.2563
G1 X141.693 Y94.755 E0.2706
G1 X141.353 Y94.350 E0.2848
G1 X140.949 Y94.027 E0.2988
G1 X140.581 Y93.827 E0.3100
G1 X140.091 Y93.662 E0.3240
G1 X139.566 Y93.596 E0.3382
G1 X139.039 Y93.636 E0.3525
G1 X138.530 Y93.779 E0.3667
G1 X138.060 Y94.020 E0.3809
G1 X137.647 Y94.350 E0.3952
G1 X137.307 Y94.755 E0.4094
G1 X137.059 Y95.209 E0.4234
G1 X136.926 Y95.606 E0.4346
G1 X136.849 Y96.118 E0.4486
; feature outer perimeter
G1 X137.451 Y96.148 F4800
G92 E0.0000
G1 X137.471 Y96.556 E0.0110 F600
G1 X137.572 Y96.952 E0.0220
G1 X137.749 Y97.320 E0.0330
G1 X137.996 Y97.645 E0.0440
G1 X138.302 Y97.916 E0.0550
G1 X138.656 Y98.120 E0.0660
G1 X139.043 Y98.250 E0.0770
G1 X139.449 Y98.301 E0.0880
G1 X139.856 Y98.270 E0.0991
G1 X140.249 Y98.160 E0.1101
G1 X140.613 Y97.973 E0.1211
G1 X140.932 Y97.719 E0.1321
G1 X141.195 Y97.406 E0.1431
G1 X141.389 Y97.050 E0.1540
G1 X141.489 Y96.752 E0.1624
G1 X141.550 Y96.349 E0.1734
G1 X141.512 Y95.847 E0.1870
G1 X141.390 Y95.453 E0.1981
G1 X141.195 Y95.094 E0.2091
G1 X140.932 Y94.781 E0.2201
G1 X140.616 Y94.529 E0.2310
G1 X140.340 Y94.379 E0.2395
G1 X139.956 Y94.250 E0.2504
G1 X139.551 Y94.199 E0.2614
G1 X139.144 Y94.230 E0.2724
G1 X138.750 Y94.340 E0.2834
G1 X138.387 Y94.527 E0.2944
G1 X138.068 Y94.781 E0.3054
G1 X137.805 Y95.094 E0.3164
G1 X137.611 Y95.450 E0.3273
G1 X137.511 Y95.747 E0.3358
G1 X137.451 Y96.148 E0.3467
; feature inner perimeter
G1 X139.566 Y151.596 F4800
G92 E0.0000
G1 X139.039 Y151.636 E0.0142 F900
G1 X138.530 Y151.779 E0.0285
G1 X138.060 Y152.020 E0.0427
G1 X137.647 Y152.350 E0.0570
G1 X137.314 Y152.746 E0.0709
G1 X137.105 Y153.109 E0.0822
G1 X136.928 Y153.595 E0.0961
G1 X136.849 Y154.118 E0.1104
G1 X136.875 Y154.646 E0.1246
G1 X137.006 Y155.158 E0.1389
G1 X137.235 Y155.634 E0.1531
G1 X137.554 Y156.056 E0.1673
G1 X137.942 Y156.398 E0.1813
G1 X138.299 Y156.616 E0.1926
G1 X138.781 Y156.805 E0.2065
G1 X139.302 Y156.897 E0.2207
G1 X139.830 Y156.884 E0.2350
G1 X140.345 Y156.766 E0.2492
G1 X140.827 Y156.549 E0.2635
G1 X141.256 Y156.240 E0.2777
G1 X141.616 Y155.853 E0.2919
G1 X141.892 Y155.402 E0.3062
G1 X142.072 Y154.905 E0.3204
G1 X142.153 Y154.371 E0.3350
G1 X142.105 Y153.735 E0.3522
G1 X141.946 Y153.219 E0.3667
G1 X141.693 Y152.755 E0.3809
G1 X141.353 Y152.350 E0.3952
G1 X140.949 Y152.027 E0.4091
G1 X140.581 Y151.827 E0.4204
G1 X140.091 Y151.662 E0.4343
G1 X139.566 Y151.596 E0.4486
; feature outer perimeter
G1 X139.551 Y152.199 F4800
G92 E0.0000
G1 X139.144 Y152.230 E0.0110 F600
G1 X138.750 Y152.340 E0.0220
G1 X138.387 Y152.527 E0.0330
G1 X138.068 Y152.781 E0.0440
G1 X137.807 Y153.091 E0.0549
G1 X137.650 Y153.363 E0.0634
G1 X137.512 Y153.744 E0.0743
G1 X137.451 Y154.148 E0.0853
G1 X137.471 Y154.556 E0.0963
G1 X137.572 Y154.952 E0.1073
G1 X137.749 Y155.320 E0.1183
G1 X137.996 Y155.645 E0.1293
G1 X138.300 Y155.913 E0.1402
G1 X138.568 Y156.077 E0.1487
G1 X138.944 Y156.225 E0.1596
G1 X139.347 Y156.296 E0.1706
G1 X139.755 Y156.286 E0.1816
G1 X140.153 Y156.195 E0.1926
G1 X140.526 Y156.027 E0.2036
G1 X140.857 Y155.788 E0.2146
G1 X141.135 Y155.489 E0.2256
G1 X141.348 Y155.140 E0.2366
G1 X141.488 Y154.756 E0.2476
G1 X141.550 Y154.349 E0.2587
G1 X141.512 Y153.847 E0.2723
G1 X141.390 Y153.453 E0.2834
G1 X141.195 Y153.094 E0.2944
G1 X140.932 Y152.781 E0.3054
G1 X140.616 Y152.529 E0.3163
G1 X140.340 Y152.379 E0.3248
G1 X139.956 Y152.250 E0.3357
G1 X139.551 Y152.199 E0.3467
; feature inner perimeter
G1 X93.153 Y154.371 F4800
G92 E0.0000
G1 X93.105 Y153.735 E0.0172 F900
G1 X92.946 Y153.219 E0.0317
G1 X92.693 Y152.755 E0.0460
G1 X92.361 Y152.358 E0.0599
G1 X92.040 Y152.089 E0.0712
G1 X91.592 Y151.830 E0.0851
G1 X91.091 Y151.662 E0.0994
G1 X90.566 Y151.596 E0.1136
G1 X90.039 Y151.636 E0.1279
G1 X89.530 Y151.779 E0.1421
G1 X89.060 Y152.020 E0.1563
G1 X88.655 Y152.343 E0.1703
G1 X88.378 Y152.657 E0.1816
G1 X88.108 Y153.098 E0.1955
G1 X87.928 Y153.595 E0.2097
G1 X87.849 Y154.118 E0.2240
G1 X87.875 Y154.646 E0.2382
G1 X88.006 Y155.158 E0.2525
G1 X88.235 Y155.634 E0.2667
G1 X88.554 Y156.056 E0.2810
G1 X88.942 Y156.398 E0.2949
G1 X89.300 Y156.616 E0.3062
G1 X89.781 Y156.805 E0.3201
G1 X90.302 Y156.897 E0.3344
G1 X90.830 Y156.884 E0.3486
G1 X91.345 Y156.766 E0.3628
G1 X91.827 Y156.549 E0.3771
G1 X92.256 Y156.240 E0.3913
G1 X92.616 Y155.853 E0.4056
G1 X92.892 Y155.402 E0.4198
G1 X93.072 Y154.905 E0.4340
G1 X93.153 Y154.371 E0.4486
; feature outer perimeter
G1 X92.550 Y154.349 F4800
G92 E0.0000
G1 X92.512 Y153.847 E0.0135 F600
G1 X92.390 Y153.453 E0.0247
G1 X92.195 Y153.094 E0.0357
G1 X91.935 Y152.784 E0.0466
G1 X91.694 Y152.582 E0.0550
G1 X91.344 Y152.380 E0.0659
G1 X90.957 Y152.250 E0.0769
G1 X90.551 Y152.199 E0.0879
G1 X90.144 Y152.230 E0.0989
G1 X89.751 Y152.340 E0.1100
G1 X89.387 Y152.527 E0.1210
G1 X89.071 Y152.779 E0.1319
G1 X88.863 Y153.015 E0.1403
G1 X88.652 Y153.360 E0.1512
G1 X88.512 Y153.744 E0.1622
G1 X88.451 Y154.148 E0.1732
G1 X88.471 Y154.556 E0.1842
G1 X88.572 Y154.952 E0.1953
G1 X88.749 Y155.320 E0.2063
G1 X88.996 Y155.645 E0.2173
G1 X89.300 Y155.913 E0.2282
G1 X89.568 Y156.077 E0.2366
G1 X89.944 Y156.225 E0.2475
G1 X90.347 Y156.296 E0.2585
G1 X90.755 Y156.286 E0.2695
G1 X91.153 Y156.195 E0.2806
G1 X91.526 Y156.027 E0.2916
G1 X91.857 Y155.788 E0.3026
G1 X92.135 Y155.489 E0.3136
G1 X92.348 Y155.140 E0.3246
G1 X92.488 Y154.756 E0.3356
G1 X92.550 Y154.349 E0.3467
; feature solid layer
G1 X93.174 Y152.571 F4800
G92 E0.0000
G1 X98.943 Y158.340 E0.2198 F960
G1 X98.095 Y158.340 E0.2427
G1 X93.627 Y153.872 E0.4129
G1 X93.666 Y154.390 E0.4269
G1 X93.617 Y154.711 E0.4356
G1 X97.246 Y158.340 E0.5739
G1 X96.397 Y158.340 E0.5967
G1 X93.441 Y155.384 E0.7094
G1 X93.353 Y155.624 E0.7163
G1 X93.156 Y155.947 E0.7265
G1 X95.549 Y158.340 E0.8176
G1 X94.700 Y158.340 E0.8405
G1 X92.783 Y156.423 E0.9135
G1 X92.596 Y156.625 E0.9210
G1 X92.328 Y156.817 E0.9298
G1 X93.852 Y158.340 E0.9879
G1 X93.003 Y158.340 E1.0107
G1 X91.789 Y157.126 E1.0570
G1 X91.509 Y157.252 E1.0653
G1 X91.149 Y157.334 E1.0752
G1 X92.155 Y158.340 E1.1135
G1 X91.306 Y158.340 E1.1364
G1 X90.372 Y157.405 E1.1720
G1 X87.064 Y158.340 F4800
G92 E0.0000
G1 X86.410 Y157.686 E0.0249 F960
G1 X86.410 Y156.838 E0.0478
G1 X87.912 Y158.340 E0.1050
G1 X88.761 Y158.340 E0.1279
G1 X86.410 Y155.989 E0.2174
G1 X86.410 Y155.141 E0.2403
G1 X89.609 Y158.340 E0.3622
G1 X90.458 Y158.340 E0.3850
G1 X89.271 Y157.153 E0.4303
G1 X89.072 Y157.075 E0.4360
G1 X88.638 Y156.810 E0.4497
G1 X88.178 Y156.404 E0.4662
G1 X87.798 Y155.901 E0.4832
G1 X87.592 Y155.474 E0.4960
G1 X86.410 Y154.292 E0.5410
G1 X86.410 Y153.444 E0.5639
