; G-Code generated by Simplify3D(R) Version 4.1.2
; Jul 6, 2021 at 4:58:35 AM
; Settings Summary
;   processName,Process1
;   applyToModels,RPi4 Case Narrow
;   profileName,Creality Ender 3 (modified)
;   profileVersion,2018-07-11 08:00:00
;   baseProfile,
;   printMaterial,PLA
;   printQuality,High
;   printExtruders,
;   extruderName,Primary Extruder
;   extruderToolheadNumber,0
;   extruderDiameter,0.4
;   extruderAutoWidth,0
;   extruderWidth,0.4
;   extrusionMultiplier,0.9
;   extruderUseRetract,1
;   extruderRetractionDistance,4
;   extruderExtraRestartDistance,0
;   extruderRetractionZLift,0
;   extruderRetractionSpeed,2400
;   extruderUseCoasting,0
;   extruderCoastingDistance,0.2
;   extruderUseWipe,0
;   extruderWipeDistance,5
;   primaryExtruder,0
;   layerHeight,0.1
;   topSolidLayers,4
;   bottomSolidLayers,4
;   perimeterOutlines,2
;   printPerimetersInsideOut,1
;   startPointOption,2
;   startPointOriginX,0
;   startPointOriginY,0
;   sequentialIslands,0
;   spiralVaseMode,0
;   firstLayerHeightPercentage,120
;   firstLayerWidthPercentage,150
;   firstLayerUnderspeed,0.5
;   useRaft,0
;   raftExtruder,0
;   raftTopLayers,3
;   raftBaseLayers,2
;   raftOffset,3
;   raftSeparationDistance,0.14
;   raftTopInfill,100
;   aboveRaftSpeedMultiplier,0.3
;   useSkirt,0
;   skirtExtruder,0
;   skirtLayers,2
;   skirtOutlines,2
;   skirtOffset,4
;   usePrimePillar,0
;   primePillarExtruder,999
;   primePillarWidth,12
;   primePillarLocation,7
;   primePillarSpeedMultiplier,1
;   useOozeShield,0
;   oozeShieldExtruder,999
;   oozeShieldOffset,2
;   oozeShieldOutlines,1
;   oozeShieldSidewallShape,1
;   oozeShieldSidewallAngle,30
;   oozeShieldSpeedMultiplier,1
;   infillExtruder,0
;   internalInfillPattern,Rectilinear
;   externalInfillPattern,Rectilinear
;   infillPercentage,30
;   outlineOverlapPercentage,15
;   infillExtrusionWidthPercentage,100
;   minInfillLength,5
;   infillLayerInterval,1
;   internalInfillAngles,45,-45
;   overlapInternalInfillAngles,0
;   externalInfillAngles,45,-45
;   generateSupport,1
;   supportExtruder,0
;   supportInfillPercentage,40
;   supportExtraInflation,0
;   supportBaseLayers,0
;   denseSupportExtruder,0
;   denseSupportLayers,0
;   denseSupportInfillPercentage,70
;   supportLayerInterval,1
;   supportHorizontalPartOffset,0.3
;   supportUpperSeparationLayers,1
;   supportLowerSeparationLayers,1
;   supportType,0
;   supportGridSpacing,4
;   maxOverhangAngle,45
;   supportAngles,0,90
;   temperatureName,Primary Extruder,Heated Bed
;   temperatureNumber,0,0
;   temperatureSetpointCount,1,1
;   temperatureSetpointLayers,1,1
;   temperatureSetpointTemperatures,200,60
;   temperatureStabilizeAtStartup,1,1
;   temperatureHeatedBed,0,1
;   fanLayers,1,2
;   fanSpeeds,0,100
;   blipFanToFullPower,0
;   adjustSpeedForCooling,1
;   minSpeedLayerTime,15
;   minCoolingSpeedSlowdown,20
;   increaseFanForCooling,0
;   minFanLayerTime,45
;   maxCoolingFanSpeed,100
;   increaseFanForBridging,0
;   bridgingFanSpeed,100
;   use5D,1
;   relativeEdistances,0
;   allowEaxisZeroing,1
;   independentExtruderAxes,0
;   includeM10123,0
;   stickySupport,1
;   applyToolheadOffsets,0
;   gcodeXoffset,0
;   gcodeYoffset,0
;   gcodeZoffset,0
;   overrideMachineDefinition,1
;   machineTypeOverride,0
;   strokeXoverride,220
;   strokeYoverride,220
;   strokeZoverride,250
;   originOffsetXoverride,-5
;   originOffsetYoverride,-5
;   originOffsetZoverride,0
;   homeXdirOverride,-1
;   homeYdirOverride,-1
;   homeZdirOverride,-1
;   flipXoverride,1
;   flipYoverride,-1
;   flipZoverride,1
;   toolheadOffsets,0,0|0,0|0,0|0,0|0,0|0,0
;   overrideFirmwareConfiguration,1
;   firmwareTypeOverride,RepRap (Marlin/Repetier/Sprinter)
;   GPXconfigOverride,r2
;   baudRateOverride,115200
;   overridePrinterModels,1
;   printerModelsOverride
;   startingGcode,G28 ; home all axes,G1 X5 Y10 Z0.2 F3000 ; get ready to prime,G92 E0 ; reset extrusion distance,G1 X160 E15 F600 ; prime nozzle,G1 X180 F5000 ; quick wipe
;   layerChangeGcode,
;   retractionGcode,
;   toolChangeGcode,
;   endingGcode,G28 X0 ; home X axis,M106 S0 ; turn off cooling fan,M104 S0 ; turn off extruder,M140 S0 ; turn off bed,M84 ; disable motors
;   exportFileFormat,gcode
;   celebration,0
;   celebrationSong,Random Song
;   postProcessing,
;   defaultSpeed,2400
;   outlineUnderspeed,0.5
;   solidInfillUnderspeed,0.8
;   supportUnderspeed,0.8
;   rapidXYspeed,4800
;   rapidZspeed,1000
;   minBridgingArea,50
;   bridgingExtraInflation,0
;   bridgingExtrusionMultiplier,1
;   bridgingSpeedMultiplier,1
;   useFixedBridgingAngle,0
;   fixedBridgingAngle,0
;   applyBridgingToPerimeters,0
;   filamentDiameters,1.75|1.75|1.75|1.75|1.75|1.75
;   filamentPricesPerKg,46|46|46|46|46|46
;   filamentDensities,1.25|1.25|1.25|1.25|1.25|1.25
;   useMinPrintHeight,0
;   minPrintHeight,0
;   useMaxPrintHeight,0
;   maxPrintHeight,0
;   useDiaphragm,0
;   diaphragmLayerInterval,20
;   robustSlicing,1
;   mergeAllIntoSolid,0
;   onlyRetractWhenCrossingOutline,1
;   retractBetweenLayers,1
;   useRetractionMinTravel,1
;   retractionMinTravel,7
;   retractWhileWiping,0
;   onlyWipeOutlines,1
;   avoidCrossingOutline,0
;   maxMovementDetourFactor,3
;   toolChangeRetractionDistance,12
;   toolChangeExtraRestartDistance,-0.5
;   toolChangeRetractionSpeed,600
;   externalThinWallType,0
;   internalThinWallType,2
;   thinWallAllowedOverlapPercentage,10
;   singleExtrusionMinLength,1
;   singleExtrusionMinPrintingWidthPercentage,50
;   singleExtrusionMaxPrintingWidthPercentage,200
;   singleExtrusionEndpointExtension,0.2
;   horizontalSizeCompensation,0
G90
M82
M106 S0
M140 S60
M190 S60
M104 S200 T0
M109 S200 T0
G28 ; home all axes
G1 X5 Y10 Z0.2 F3000 ; get ready to prime
G92 E0 ; reset extrusion distance
G1 X160 E15 F600 ; prime nozzle
G1 X180 F5000 ; quick wipe
; process Process1
; layer 1, Z = 0.120
T0
G92 E0.0000
G1 E-4.0000 F2400
; feature inner perimeter
; tool H0.120 W0.600
G1 Z0.120 F1000
G1 X87.909 Y72.150 F4800
G1 E0.0000 F2400
G92 E0.0000
G1 X142.100 Y72.150 E1.4599 F900
G1 X142.100 Y96.239 E2.1089
G1 X141.353 Y95.350 E2.1402
G1 X140.949 Y95.027 E2.1542
G1 X140.581 Y94.827 E2.1654
G1 X140.091 Y94.662 E2.1794
G1 X139.566 Y94.596 E2.1936
G1 X139.039 Y94.636 E2.2079
G1 X138.530 Y94.779 E2.2221
G1 X138.060 Y95.020 E2.2363
G1 X137.647 Y95.350 E2.2506
G1 X137.307 Y95.755 E2.2648
G1 X137.059 Y96.209 E2.2788
G1 X136.926 Y96.606 E2.2901
G1 X136.849 Y97.118 E2.3040
G1 X136.875 Y97.646 E2.3182
G1 X137.006 Y98.158 E2.3325
G1 X137.235 Y98.634 E2.3467
G1 X137.554 Y99.055 E2.3610
G1 X137.950 Y99.405 E2.3752
G1 X138.408 Y99.670 E2.3894
G1 X138.909 Y99.838 E2.4037
G1 X139.434 Y99.904 E2.4179
G1 X139.961 Y99.864 E2.4322
G1 X140.470 Y99.721 E2.4464
G1 X140.940 Y99.480 E2.4606
G1 X141.353 Y99.150 E2.4749
G1 X142.100 Y98.261 E2.5062
G1 X142.100 Y154.239 E4.0143
G1 X141.353 Y153.350 E4.0456
G1 X140.949 Y153.027 E4.0595
G1 X140.581 Y152.827 E4.0708
G1 X140.091 Y152.662 E4.0847
G1 X139.566 Y152.596 E4.0990
G1 X139.039 Y152.636 E4.1132
G1 X138.530 Y152.779 E4.1275
G1 X138.060 Y153.020 E4.1417
G1 X137.647 Y153.350 E4.1559
G1 X137.314 Y153.746 E4.1699
G1 X137.105 Y154.109 E4.1812
G1 X136.928 Y154.595 E4.1951
G1 X136.849 Y155.118 E4.2093
G1 X136.875 Y155.646 E4.2236
G1 X137.006 Y156.158 E4.2378
G1 X137.235 Y156.634 E4.2521
G1 X137.554 Y157.056 E4.2663
G1 X138.454 Y157.850 E4.2987
G1 X92.050 Y157.850 E5.5488
G1 X91.929 Y157.476 E5.5594
G1 X92.256 Y157.240 E5.5703
G1 X92.616 Y156.853 E5.5845
G1 X92.892 Y156.402 E5.5988
G1 X93.072 Y155.905 E5.6130
G1 X93.153 Y155.371 E5.6276
G1 X93.105 Y154.735 E5.6447
G1 X92.946 Y154.219 E5.6593
G1 X92.693 Y153.755 E5.6735
G1 X92.361 Y153.358 E5.6875
G1 X92.040 Y153.089 E5.6988
G1 X91.592 Y152.830 E5.7127
G1 X91.091 Y152.662 E5.7269
G1 X90.566 Y152.596 E5.7412
G1 X90.039 Y152.636 E5.7554
G1 X89.530 Y152.779 E5.7697
G1 X89.060 Y153.020 E5.7839
G1 X88.655 Y153.343 E5.7978
G1 X87.900 Y154.198 E5.8286
G1 X87.906 Y98.810 E7.3208
G1 X88.274 Y98.686 E7.3312
G1 X88.554 Y99.056 E7.3437
G1 X88.950 Y99.405 E7.3580
G1 X89.408 Y99.670 E7.3722
G1 X89.909 Y99.838 E7.3865
G1 X90.434 Y99.904 E7.4007
G1 X90.961 Y99.864 E7.4149
G1 X91.470 Y99.721 E7.4292
G1 X91.940 Y99.480 E7.4434
G1 X92.345 Y99.157 E7.4574
G1 X92.622 Y98.843 E7.4686
G1 X92.892 Y98.402 E7.4826
G1 X93.072 Y97.905 E7.4968
G1 X93.153 Y97.371 E7.5114
G1 X93.105 Y96.735 E7.5286
G1 X92.946 Y96.219 E7.5431
G1 X92.693 Y95.755 E7.5573
G1 X92.353 Y95.350 E7.5716
G1 X91.949 Y95.027 E7.5855
G1 X91.581 Y94.827 E7.5968
G1 X91.091 Y94.662 E7.6107
G1 X90.566 Y94.596 E7.6250
G1 X90.039 Y94.636 E7.6392
G1 X89.530 Y94.779 E7.6535
G1 X89.060 Y95.020 E7.6677
G1 X88.646 Y95.350 E7.6819
G1 X87.906 Y96.232 E7.7130
G1 X87.909 Y72.150 E8.3617
G1 X88.268 Y156.678 F4800
G92 E0.0000
G1 X88.554 Y157.056 E0.0128 F900
G1 X89.454 Y157.850 E0.0451
G1 X87.900 Y157.850 E0.0870
G1 X87.900 Y156.802 E0.1152
G1 X88.268 Y156.678 E0.1257
G92 E0.0000
G1 E-4.0000 F2400
G1 X140.929 Y157.476 F4800
G1 E0.0000 F2400
G92 E0.0000
G1 X141.256 Y157.240 E0.0109 F900
G1 X142.100 Y156.331 E0.0443
G1 X142.100 Y157.850 E0.0852
G1 X141.050 Y157.850 E0.1135
G1 X140.929 Y157.476 E0.1241
; feature outer perimeter
G1 X142.700 Y158.450 F4800
G92 E0.0000
G1 X87.300 Y158.450 E1.4925 F600
G1 X87.309 Y71.550 E3.8337
G1 X142.700 Y71.550 E5.3259
G1 X142.700 Y158.450 E7.6671
G1 X140.857 Y156.788 F4800
G92 E0.0000
G1 X141.135 Y156.489 E0.0110 F600
G1 X141.348 Y156.140 E0.0220
G1 X141.488 Y155.756 E0.0330
G1 X141.550 Y155.349 E0.0441
G1 X141.512 Y154.847 E0.0577
G1 X141.390 Y154.453 E0.0688
G1 X141.195 Y154.094 E0.0798
G1 X140.932 Y153.781 E0.0908
G1 X140.616 Y153.529 E0.1017
G1 X140.340 Y153.379 E0.1102
G1 X139.956 Y153.250 E0.1211
G1 X139.551 Y153.199 E0.1321
G1 X139.144 Y153.230 E0.1431
G1 X138.750 Y153.340 E0.1541
G1 X138.387 Y153.527 E0.1651
G1 X138.068 Y153.781 E0.1761
G1 X137.807 Y154.091 E0.1870
G1 X137.650 Y154.363 E0.1955
G1 X137.512 Y154.744 E0.2064
G1 X137.451 Y155.148 E0.2174
G1 X137.471 Y155.556 E0.2284
G1 X137.572 Y155.952 E0.2394
G1 X137.749 Y156.320 E0.2504
G1 X137.996 Y156.645 E0.2614
G1 X138.300 Y156.913 E0.2723
G1 X138.568 Y157.077 E0.2808
G1 X138.944 Y157.225 E0.2917
G1 X139.347 Y157.296 E0.3027
G1 X139.755 Y157.286 E0.3137
G1 X140.153 Y157.195 E0.3247
G1 X140.526 Y157.027 E0.3357
G1 X140.857 Y156.788 E0.3467
G92 E0.0000
G1 E-4.0000 F2400
G1 X92.550 Y155.349 F4800
G1 E0.0000 F2400
G92 E0.0000
G1 X92.512 Y154.847 E0.0135 F600
G1 X92.390 Y154.453 E0.0247
G1 X92.195 Y154.094 E0.0357
G1 X91.935 Y153.784 E0.0466
G1 X91.694 Y153.582 E0.0550
G1 X91.344 Y153.380 E0.0659
G1 X90.957 Y153.250 E0.0769
G1 X90.551 Y153.199 E0.0879
G1 X90.144 Y153.230 E0.0989
G1 X89.751 Y153.340 E0.1100
G1 X89.387 Y153.527 E0.1210
G1 X89.071 Y153.779 E0.1319
G1 X88.863 Y154.015 E0.1403
G1 X88.652 Y154.360 E0.1512
G1 X88.512 Y154.744 E0.1622
G1 X88.451 Y155.148 E0.1732
G1 X88.471 Y155.556 E0.1842
G1 X88.572 Y155.952 E0.1953
G1 X88.749 Y156.320 E0.2063
G1 X88.996 Y156.645 E0.2173
G1 X89.300 Y156.913 E0.2282
G1 X89.568 Y157.077 E0.2366
G1 X89.944 Y157.225 E0.2475
G1 X90.347 Y157.296 E0.2585
G1 X90.755 Y157.286 E0.2695
G1 X91.153 Y157.195 E0.2806
G1 X91.526 Y157.027 E0.2916
G1 X91.857 Y156.788 E0.3026
G1 X92.135 Y156.489 E0.3136
G1 X92.348 Y156.140 E0.3246
G1 X92.488 Y155.756 E0.3356
G1 X92.550 Y155.349 E0.3467
G1 X90.449 Y99.301 F4800
G92 E0.0000
G1 X90.856 Y99.270 E0.0110 F600
G1 X91.249 Y99.160 E0.0220
G1 X91.613 Y98.973 E0.0330
G1 X91.929 Y98.721 E0.0439
G1 X92.137 Y98.485 E0.0524
G1 X92.348 Y98.140 E0.0633
G1 X92.488 Y97.756 E0.0743
G1 X92.550 Y97.349 E0.0854
G1 X92.512 Y96.847 E0.0989
G1 X92.390 Y96.453 E0.1101
G1 X92.195 Y96.094 E0.1211
G1 X91.932 Y95.781 E0.1321
G1 X91.616 Y95.529 E0.1430
G1 X91.340 Y95.379 E0.1514
G1 X90.957 Y95.250 E0.1623
G1 X90.551 Y95.199 E0.1733
G1 X90.144 Y95.230 E0.1843
G1 X89.751 Y95.340 E0.1954
G1 X89.387 Y95.527 E0.2064
G1 X89.068 Y95.781 E0.2174
G1 X88.805 Y96.094 E0.2284
G1 X88.610 Y96.453 E0.2394
G1 X88.490 Y96.840 E0.2503
G1 X88.451 Y97.151 E0.2587
G1 X88.471 Y97.556 E0.2696
G1 X88.572 Y97.952 E0.2807
G1 X88.749 Y98.320 E0.2917
G1 X88.996 Y98.645 E0.3027
G1 X89.302 Y98.916 E0.3137
G1 X89.656 Y99.120 E0.3247
G1 X90.043 Y99.250 E0.3357
G1 X90.449 Y99.301 E0.3467
G1 X137.451 Y97.148 F4800
G92 E0.0000
G1 X137.471 Y97.556 E0.0110 F600
G1 X137.572 Y97.952 E0.0220
G1 X137.749 Y98.320 E0.0330
G1 X137.996 Y98.645 E0.0440
G1 X138.302 Y98.916 E0.0550
G1 X138.656 Y99.120 E0.0660
G1 X139.043 Y99.250 E0.0770
G1 X139.449 Y99.301 E0.0880
G1 X139.856 Y99.270 E0.0991
G1 X140.249 Y99.160 E0.1101
G1 X140.613 Y98.973 E0.1211
G1 X140.932 Y98.719 E0.1321
G1 X141.195 Y98.406 E0.1431
G1 X141.389 Y98.050 E0.1540
G1 X141.489 Y97.752 E0.1624
G1 X141.550 Y97.349 E0.1734
G1 X141.512 Y96.847 E0.1870
G1 X141.390 Y96.453 E0.1981
G1 X141.195 Y96.094 E0.2091
G1 X140.932 Y95.781 E0.2201
G1 X140.616 Y95.529 E0.2310
G1 X140.340 Y95.379 E0.2395
G1 X139.956 Y95.250 E0.2504
G1 X139.551 Y95.199 E0.2614
G1 X139.144 Y95.230 E0.2724
G1 X138.750 Y95.340 E0.2834
G1 X138.387 Y95.527 E0.2944
G1 X138.068 Y95.781 E0.3054
G1 X137.805 Y96.094 E0.3164
G1 X137.611 Y96.450 E0.3273
G1 X137.511 Y96.747 E0.3358
G1 X137.451 Y97.148 E0.3467
; feature gap fill
; tool H0.120 W0.400
G1 X141.869 Y96.614 F4800
G92 E0.0000
G1 X141.884 Y96.629 E0.0004 F1200
G1 X142.290 Y97.113 E0.0117
G1 X142.290 Y97.387 E0.0166
G1 X142.192 Y97.503 E0.0194
G1 X141.954 Y97.265 E0.0254
G1 X141.962 Y97.364 E0.0272
G1 X141.900 Y97.776 E0.0347
G1 X141.934 Y97.811 E0.0356
G92 E0.0000
G1 E-4.0000 F2400
G1 X88.129 Y96.614 F4800
G1 E0.0000 F2400
G92 E0.0000
G1 X88.088 Y96.753 E0.0026 F1200
G1 X88.045 Y97.096 E0.0088
G1 X87.871 Y96.922 E0.0133
G1 X87.716 Y97.105 E0.0176
G1 X87.716 Y97.333 E0.0217
G1 X88.086 Y97.702 E0.0310
G1 X88.185 Y98.093 E0.0383
G1 X88.261 Y98.251 E0.0414
G1 X88.117 Y98.300 E0.0442
G1 X87.716 Y97.899 E0.0544
G1 X87.983 Y154.734 F4800
G92 E0.0000
G1 X88.084 Y154.835 E0.0026 F1200
G1 X88.040 Y155.127 E0.0079
G1 X88.052 Y155.368 E0.0122
G1 X87.718 Y155.034 E0.0207
G1 X87.710 Y155.042 E0.0209
G1 X87.710 Y155.593 E0.0308
G1 X88.176 Y156.059 E0.0426
G1 X88.185 Y156.093 E0.0432
G1 X88.257 Y156.243 E0.0462
G1 X87.911 Y156.359 E0.0528
G1 X87.710 Y156.158 E0.0579
G1 X90.723 Y158.040 F4800
G92 E0.0000
G1 X90.388 Y157.705 E0.0085 F1200
G1 X90.806 Y157.694 E0.0160
G1 X90.918 Y157.669 E0.0181
G1 X91.289 Y158.040 E0.0275
G1 X91.674 Y158.040 E0.0344
G1 X91.588 Y157.773 E0.0395
G1 X91.364 Y157.549 E0.0451
G1 X139.372 Y158.040 F4800
G92 E0.0000
G1 X138.980 Y157.647 E0.0100 F1200
G1 X139.316 Y157.707 E0.0161
G1 X139.598 Y157.700 E0.0212
G1 X139.938 Y158.040 E0.0298
G1 X140.504 Y158.040 E0.0400
G1 X140.093 Y157.629 E0.0504
G1 X141.848 Y155.991 F4800
G92 E0.0000
G1 X141.842 Y155.984 E0.0002 F1200
G1 X141.887 Y155.858 E0.0026
G1 X141.939 Y155.515 E0.0088
G1 X142.121 Y155.697 E0.0134
G1 X142.290 Y155.515 E0.0179
G1 X142.290 Y155.301 E0.0217
G1 X141.930 Y154.941 E0.0309
G92 E0.0000
G1 E-4.0000 F2400
; feature solid layer
; tool H0.120 W0.600
G1 X93.700 Y157.340 F4800
G1 E0.0000 F2400
G92 E0.0000
G1 X93.213 Y156.853 E0.0186 F960
G1 X93.353 Y156.624 E0.0258
G1 X93.481 Y156.272 E0.0359
G1 X94.549 Y157.340 E0.0765
G1 X95.397 Y157.340 E0.0994
G1 X93.637 Y155.580 E0.1665
G1 X88.893 Y152.533 F4800
G92 E0.0000
G1 X88.411 Y152.050 E0.0184 F960
G1 X88.411 Y151.202 E0.0412
G1 X89.474 Y152.265 E0.0817
G1 X89.950 Y152.131 E0.0951
G1 X90.172 Y152.114 E0.1011
G1 X88.411 Y150.353 E0.1682
G1 X88.411 Y149.505 E0.1910
G1 X91.049 Y152.143 E0.2915
G1 X91.205 Y152.162 E0.2957
G1 X91.803 Y152.363 E0.3127
