; G-Code generated by Simplify3D(R) Version 4.1.2
; Jun 30, 2021 at 4:40:43 PM
; Settings Summary
;   processName,Process1
;   applyToModels,Case Top
;   profileName,Creality Ender 3 (modified)
;   profileVersion,2018-07-11 08:00:00
;   baseProfile,
;   printMaterial,PLA
;   printQuality,High
;   printExtruders,
;   extruderName,Primary Extruder
;   extruderToolheadNumber,0
;   extruderDiameter,0.4
;   extruderAutoWidth,0
;   extruderWidth,0.4
;   extrusionMultiplier,0.9
;   extruderUseRetract,1
;   extruderRetractionDistance,4
;   extruderExtraRestartDistance,0
;   extruderRetractionZLift,0
;   extruderRetractionSpeed,2400
;   extruderUseCoasting,0
;   extruderCoastingDistance,0.2
;   extruderUseWipe,0
;   extruderWipeDistance,5
;   primaryExtruder,0
;   layerHeight,0.1
;   topSolidLayers,4
;   bottomSolidLayers,4
;   perimeterOutlines,2
;   printPerimetersInsideOut,1
;   startPointOption,2
;   startPointOriginX,0
;   startPointOriginY,0
;   sequentialIslands,0
;   spiralVaseMode,0
;   firstLayerHeightPercentage,120
;   firstLayerWidthPercentage,150
;   firstLayerUnderspeed,0.5
;   useRaft,0
;   raftExtruder,0
;   raftTopLayers,3
;   raftBaseLayers,2
;   raftOffset,3
;   raftSeparationDistance,0.14
;   raftTopInfill,100
;   aboveRaftSpeedMultiplier,0.3
;   useSkirt,0
;   skirtExtruder,0
;   skirtLayers,2
;   skirtOutlines,2
;   skirtOffset,4
;   usePrimePillar,0
;   primePillarExtruder,999
;   primePillarWidth,12
;   primePillarLocation,7
;   primePillarSpeedMultiplier,1
;   useOozeShield,0
;   oozeShieldExtruder,999
;   oozeShieldOffset,2
;   oozeShieldOutlines,1
;   oozeShieldSidewallShape,1
;   oozeShieldSidewallAngle,30
;   oozeShieldSpeedMultiplier,1
;   infillExtruder,0
;   internalInfillPattern,Rectilinear
;   externalInfillPattern,Rectilinear
;   infillPercentage,30
;   outlineOverlapPercentage,15
;   infillExtrusionWidthPercentage,100
;   minInfillLength,5
;   infillLayerInterval,1
;   internalInfillAngles,45,-45
;   overlapInternalInfillAngles,0
;   externalInfillAngles,45,-45
;   generateSupport,1
;   supportExtruder,0
;   supportInfillPercentage,40
;   supportExtraInflation,0
;   supportBaseLayers,0
;   denseSupportExtruder,0
;   denseSupportLayers,0
;   denseSupportInfillPercentage,70
;   supportLayerInterval,1
;   supportHorizontalPartOffset,0.3
;   supportUpperSeparationLayers,1
;   supportLowerSeparationLayers,1
;   supportType,0
;   supportGridSpacing,4
;   maxOverhangAngle,45
;   supportAngles,0
;   temperatureName,Primary Extruder,Heated Bed
;   temperatureNumber,0,0
;   temperatureSetpointCount,1,1
;   temperatureSetpointLayers,1,1
;   temperatureSetpointTemperatures,205,60
;   temperatureStabilizeAtStartup,1,1
;   temperatureHeatedBed,0,1
;   fanLayers,1,2
;   fanSpeeds,0,100
;   blipFanToFullPower,0
;   adjustSpeedForCooling,1
;   minSpeedLayerTime,15
;   minCoolingSpeedSlowdown,20
;   increaseFanForCooling,0
;   minFanLayerTime,45
;   maxCoolingFanSpeed,100
;   increaseFanForBridging,0
;   bridgingFanSpeed,100
;   use5D,1
;   relativeEdistances,0
;   allowEaxisZeroing,1
;   independentExtruderAxes,0
;   includeM10123,0
;   stickySupport,1
;   applyToolheadOffsets,0
;   gcodeXoffset,0
;   gcodeYoffset,0
;   gcodeZoffset,0
;   overrideMachineDefinition,1
;   machineTypeOverride,0
;   strokeXoverride,220
;   strokeYoverride,220
;   strokeZoverride,250
;   originOffsetXoverride,-5
;   originOffsetYoverride,-5
;   originOffsetZoverride,0
;   homeXdirOverride,-1
;   homeYdirOverride,-1
;   homeZdirOverride,-1
;   flipXoverride,1
;   flipYoverride,-1
;   flipZoverride,1
;   toolheadOffsets,0,0|0,0|0,0|0,0|0,0|0,0
;   overrideFirmwareConfiguration,1
;   firmwareTypeOverride,RepRap (Marlin/Repetier/Sprinter)
;   GPXconfigOverride,r2
;   baudRateOverride,115200
;   overridePrinterModels,1
;   printerModelsOverride
;   startingGcode,G28 ; home all axes,G1 X5 Y10 Z0.2 F3000 ; get ready to prime,G92 E0 ; reset extrusion distance,G1 X160 E15 F600 ; prime nozzle,G1 X180 F5000 ; quick wipe
;   layerChangeGcode,
;   retractionGcode,
;   toolChangeGcode,
;   endingGcode,G28 X0 ; home X axis,M106 S0 ; turn off cooling fan,M104 S0 ; turn off extruder,M140 S0 ; turn off bed,M84 ; disable motors
;   exportFileFormat,gcode
;   celebration,0
;   celebrationSong,Random Song
;   postProcessing,
;   defaultSpeed,2400
;   outlineUnderspeed,0.5
;   solidInfillUnderspeed,0.8
;   supportUnderspeed,0.8
;   rapidXYspeed,4800
;   rapidZspeed,1000
;   minBridgingArea,50
;   bridgingExtraInflation,0
;   bridgingExtrusionMultiplier,1
;   bridgingSpeedMultiplier,1
;   useFixedBridgingAngle,0
;   fixedBridgingAngle,0
;   applyBridgingToPerimeters,0
;   filamentDiameters,1.75|1.75|1.75|1.75|1.75|1.75
;   filamentPricesPerKg,46|46|46|46|46|46
;   filamentDensities,1.25|1.25|1.25|1.25|1.25|1.25
;   useMinPrintHeight,0
;   minPrintHeight,0
;   useMaxPrintHeight,0
;   maxPrintHeight,0
;   useDiaphragm,0
;   diaphragmLayerInterval,20
;   robustSlicing,1
;   mergeAllIntoSolid,0
;   onlyRetractWhenCrossingOutline,1
;   retractBetweenLayers,1
;   useRetractionMinTravel,1
;   retractionMinTravel,7
;   retractWhileWiping,0
;   onlyWipeOutlines,1
;   avoidCrossingOutline,0
;   maxMovementDetourFactor,3
;   toolChangeRetractionDistance,12
;   toolChangeExtraRestartDistance,-0.5
;   toolChangeRetractionSpeed,600
;   externalThinWallType,0
;   internalThinWallType,2
;   thinWallAllowedOverlapPercentage,10
;   singleExtrusionMinLength,1
;   singleExtrusionMinPrintingWidthPercentage,50
;   singleExtrusionMaxPrintingWidthPercentage,200
;   singleExtrusionEndpointExtension,0.2
;   horizontalSizeCompensation,0
G90
M82
M106 S0
M140 S60
M190 S60
M104 S205 T0
M109 S205 T0
G28 ; home all axes
G1 X5 Y10 Z0.2 F3000 ; get ready to prime
G92 E0 ; reset extrusion distance
G1 X160 E15 F600 ; prime nozzle
G1 X180 F5000 ; quick wipe
; process Process1
; layer 1, Z = 0.120
T0
G92 E0.0000
G1 E-4.0000 F2400
; feature inner perimeter
; tool H0.120 W0.600
G1 Z0.120 F1000
G1 X85.900 Y90.900 F4800
G1 E0.0000 F2400
G92 E0.0000
G1 X87.119 Y90.900 E0.0329 F900
G1 X87.102 Y91.678 E0.0538
G1 X87.166 Y92.181 E0.0675
G1 X87.302 Y92.658 E0.0808
G1 X87.442 Y92.991 E0.0906
G1 X87.686 Y93.411 E0.1036
G1 X87.904 Y93.698 E0.1134
G1 X88.251 Y94.053 E0.1268
G1 X88.647 Y94.353 E0.1401
G1 X88.960 Y94.533 E0.1499
G1 X89.418 Y94.726 E0.1632
G1 X89.910 Y94.851 E0.1769
G1 X90.415 Y94.901 E0.1906
G1 X90.911 Y94.877 E0.2040
G1 X91.267 Y94.814 E0.2137
G1 X91.741 Y94.668 E0.2271
G1 X92.199 Y94.448 E0.2408
G1 X92.619 Y94.162 E0.2544
G1 X92.992 Y93.817 E0.2681
G1 X93.302 Y93.429 E0.2815
G1 X93.490 Y93.121 E0.2912
G1 X93.695 Y92.669 E0.3046
G1 X93.832 Y92.187 E0.3181
G1 X93.891 Y91.772 E0.3294
G1 X93.898 Y91.328 E0.3414
G1 X93.845 Y90.900 E0.3530
G1 X136.119 Y90.900 E1.4919
G1 X136.102 Y91.678 E1.5129
G1 X136.165 Y92.169 E1.5262
G1 X136.255 Y92.519 E1.5359
G1 X136.437 Y92.981 E1.5493
G1 X136.691 Y93.420 E1.5630
G1 X137.008 Y93.817 E1.5767
G1 X137.373 Y94.155 E1.5901
G1 X137.657 Y94.358 E1.5995
G1 X137.960 Y94.533 E1.6089
G1 X138.418 Y94.726 E1.6223
G1 X138.910 Y94.851 E1.6360
G1 X139.415 Y94.901 E1.6496
G1 X139.911 Y94.877 E1.6630
G1 X140.267 Y94.814 E1.6728
G1 X140.741 Y94.668 E1.6861
G1 X141.199 Y94.448 E1.6998
G1 X141.619 Y94.162 E1.7135
G1 X141.992 Y93.817 E1.7272
G1 X142.302 Y93.429 E1.7406
G1 X142.490 Y93.121 E1.7503
G1 X142.695 Y92.669 E1.7637
G1 X142.832 Y92.187 E1.7772
G1 X142.891 Y91.772 E1.7885
G1 X142.898 Y91.327 E1.8004
G1 X142.845 Y90.900 E1.8120
G1 X144.100 Y90.900 E1.8459
G1 X144.100 Y114.100 E2.4709
G1 X85.900 Y114.100 E4.0388
G1 X85.900 Y90.900 E4.6639
; feature outer perimeter
G1 X85.300 Y90.300 F4800
G92 E0.0000
G1 X87.977 Y90.300 E0.0721 F600
G1 X87.864 Y90.552 E0.0796
G1 X87.754 Y90.950 E0.0907
G1 X87.712 Y91.233 E0.0984
G1 X87.703 Y91.646 E0.1095
G1 X87.756 Y92.060 E0.1208
G1 X87.869 Y92.459 E0.1319
G1 X87.980 Y92.722 E0.1396
G1 X88.186 Y93.078 E0.1507
G1 X88.359 Y93.306 E0.1584
G1 X88.649 Y93.602 E0.1696
G1 X88.979 Y93.852 E0.1807
G1 X89.227 Y93.995 E0.1884
G1 X89.609 Y94.155 E0.1996
G1 X90.014 Y94.258 E0.2109
G1 X90.430 Y94.300 E0.2221
G1 X90.844 Y94.279 E0.2333
G1 X91.126 Y94.230 E0.2410
G1 X91.522 Y94.108 E0.2522
G1 X91.899 Y93.927 E0.2634
G1 X92.244 Y93.691 E0.2747
G1 X92.551 Y93.407 E0.2860
G1 X92.810 Y93.084 E0.2971
G1 X92.959 Y92.840 E0.3048
G1 X93.130 Y92.462 E0.3160
G1 X93.244 Y92.062 E0.3272
G1 X93.292 Y91.725 E0.3364
G1 X93.297 Y91.360 E0.3462
G1 X93.246 Y90.949 E0.3574
G1 X93.134 Y90.549 E0.3686
G1 X93.023 Y90.300 E0.3759
G1 X136.977 Y90.300 E1.5600
G1 X136.915 Y90.422 E1.5637
G1 X136.783 Y90.818 E1.5750
G1 X136.712 Y91.229 E1.5862
G1 X136.703 Y91.646 E1.5975
G1 X136.755 Y92.056 E1.6086
G1 X136.826 Y92.334 E1.6163
G1 X136.978 Y92.719 E1.6275
G1 X137.188 Y93.081 E1.6387
G1 X137.449 Y93.407 E1.6500
G1 X137.753 Y93.689 E1.6612
G1 X137.983 Y93.854 E1.6688
G1 X138.227 Y93.995 E1.6764
G1 X138.609 Y94.155 E1.6875
G1 X139.014 Y94.258 E1.6988
G1 X139.430 Y94.300 E1.7101
G1 X139.844 Y94.279 E1.7212
G1 X140.126 Y94.230 E1.7289
G1 X140.522 Y94.108 E1.7401
G1 X140.899 Y93.927 E1.7514
G1 X141.244 Y93.691 E1.7626
G1 X141.551 Y93.407 E1.7739
G1 X141.810 Y93.084 E1.7850
G1 X141.959 Y92.840 E1.7928
G1 X142.130 Y92.462 E1.8039
G1 X142.244 Y92.062 E1.8151
G1 X142.292 Y91.725 E1.8243
G1 X142.297 Y91.360 E1.8341
G1 X142.246 Y90.949 E1.8453
G1 X142.134 Y90.549 E1.8565
G1 X142.023 Y90.300 E1.8638
G1 X144.700 Y90.300 E1.9360
G1 X144.700 Y114.700 E2.5933
G1 X85.300 Y114.700 E4.1936
G1 X85.300 Y90.300 E4.8509
; feature solid layer
G1 X86.657 Y92.220 F4800
G92 E0.0000
G1 X86.410 Y91.973 E0.0094 F960
G1 X86.410 Y92.822 E0.0323
G1 X87.230 Y93.642 E0.0635
G1 X87.260 Y93.694 E0.0651
G1 X87.517 Y94.032 E0.0766
G1 X87.913 Y94.437 E0.0918
G1 X88.365 Y94.779 E0.1071
G1 X88.370 Y94.782 E0.1073
G1 X107.178 Y113.590 E0.8239
G1 X108.027 Y113.590 E0.8467
G1 X89.781 Y95.344 E1.5419
G1 X89.821 Y95.355 E1.5430
G1 X90.403 Y95.413 E1.5587
G1 X90.684 Y95.399 E1.5663
G1 X108.875 Y113.590 E2.2594
G1 X109.724 Y113.590 E2.2823
G1 X91.431 Y95.297 E2.9792
G1 X91.928 Y95.144 E2.9932
G1 X92.062 Y95.080 E2.9972
G1 X110.572 Y113.590 E3.7025
G1 X111.421 Y113.590 E3.7253
G1 X92.614 Y94.783 E4.4419
G1 X92.937 Y94.562 E4.4524
G1 X93.095 Y94.416 E4.4582
G1 X112.269 Y113.590 E5.1888
G1 X113.118 Y113.590 E5.2116
G1 X93.512 Y93.984 E5.9586
G1 X93.720 Y93.723 E5.9676
G1 X93.864 Y93.488 E5.9751
G1 X113.967 Y113.590 E6.7410
G1 X114.815 Y113.590 E6.7638
G1 X94.143 Y92.918 E7.5514
G1 X94.176 Y92.845 E7.5536
G1 X94.332 Y92.293 E7.5691
G1 X94.336 Y92.263 E7.5699
G1 X115.664 Y113.590 E8.3824
G1 X116.512 Y113.590 E8.4053
G1 X94.405 Y91.483 E9.2476
G1 X94.407 Y91.410 E9.2495
G1 X95.181 Y91.410 E9.2704
G1 X117.361 Y113.590 E10.1154
G1 X118.209 Y113.590 E10.1383
G1 X96.029 Y91.410 E10.9834
G1 X96.878 Y91.410 E11.0062
G1 X119.058 Y113.590 E11.8513
G1 X119.906 Y113.590 E11.8741
G1 X97.726 Y91.410 E12.7192
G1 X98.575 Y91.410 E12.7421
G1 X120.755 Y113.590 E13.5871
G1 X121.603 Y113.590 E13.6100
G1 X99.423 Y91.410 E14.4550
G1 X100.272 Y91.410 E14.4779
G1 X122.452 Y113.590 E15.3229
G1 X123.300 Y113.590 E15.3458
G1 X101.120 Y91.410 E16.1909
G1 X101.969 Y91.410 E16.2137
G1 X124.149 Y113.590 E17.0588
G1 X124.997 Y113.590 E17.0816
G1 X102.817 Y91.410 E17.9267
G1 X103.666 Y91.410 E17.9496
G1 X125.846 Y113.590 E18.7946
G1 X126.694 Y113.590 E18.8175
G1 X104.514 Y91.410 E19.6625
G1 X105.363 Y91.410 E19.6854
G1 X127.543 Y113.590 E20.5304
G1 X128.392 Y113.590 E20.5533
G1 X106.212 Y91.410 E21.3984
G1 X107.060 Y91.410 E21.4212
G1 X129.240 Y113.590 E22.2663
G1 X130.089 Y113.590 E22.2891
G1 X107.909 Y91.410 E23.1342
G1 X108.757 Y91.410 E23.1570
G1 X130.937 Y113.590 E24.0021
G1 X131.786 Y113.590 E24.0250
G1 X109.606 Y91.410 E24.8700
G1 X110.454 Y91.410 E24.8929
G1 X132.634 Y113.590 E25.7379
G1 X133.483 Y113.590 E25.7608
G1 X111.303 Y91.410 E26.6059
G1 X112.151 Y91.410 E26.6287
G1 X134.331 Y113.590 E27.4738
G1 X135.180 Y113.590 E27.4966
G1 X113.000 Y91.410 E28.3417
G1 X113.848 Y91.410 E28.3645
G1 X136.028 Y113.590 E29.2096
G1 X136.877 Y113.590 E29.2325
G1 X114.697 Y91.410 E30.0775
G1 X115.545 Y91.410 E30.1004
G1 X137.725 Y113.590 E30.9454
G1 X138.574 Y113.590 E30.9683
G1 X116.394 Y91.410 E31.8133
G1 X117.242 Y91.410 E31.8362
G1 X139.422 Y113.590 E32.6813
G1 X140.271 Y113.590 E32.7041
G1 X118.091 Y91.410 E33.5492
G1 X118.939 Y91.410 E33.5720
G1 X141.119 Y113.590 E34.4171
G1 X141.968 Y113.590 E34.4400
G1 X119.788 Y91.410 E35.2850
G1 X120.637 Y91.410 E35.3079
G1 X142.817 Y113.590 E36.1529
G1 X143.590 Y113.590 E36.1738
G1 X143.590 Y113.515 E36.1758
G1 X121.485 Y91.410 E37.0180
G1 X122.334 Y91.410 E37.0408
G1 X143.590 Y112.666 E37.8507
G1 X143.590 Y111.818 E37.8736
G1 X123.182 Y91.410 E38.6511
G1 X124.031 Y91.410 E38.6740
G1 X143.590 Y110.969 E39.4192
G1 X143.590 Y110.121 E39.4420
G1 X124.879 Y91.410 E40.1549
G1 X125.728 Y91.410 E40.1778
G1 X143.590 Y109.272 E40.8583
G1 X143.590 Y108.424 E40.8812
G1 X126.576 Y91.410 E41.5294
G1 X127.425 Y91.410 E41.5523
G1 X143.590 Y107.575 E42.1682
G1 X143.590 Y106.727 E42.1910
G1 X128.273 Y91.410 E42.7746
G1 X129.122 Y91.410 E42.7975
G1 X143.590 Y105.878 E43.3487
G1 X143.590 Y105.030 E43.3716
G1 X129.970 Y91.410 E43.8905
G1 X130.819 Y91.410 E43.9133
G1 X143.590 Y104.181 E44.3999
G1 X143.590 Y103.333 E44.4228
G1 X131.667 Y91.410 E44.8770
G1 X132.516 Y91.410 E44.8999
G1 X143.590 Y102.484 E45.3218
G1 X143.590 Y101.636 E45.3447
G1 X133.364 Y91.410 E45.7343
G1 X135.626 Y91.974 F4800
G92 E0.0000
G1 X135.061 Y91.410 E0.0215 F960
G1 X134.213 Y91.410 E0.0444
G1 X135.957 Y93.154 E0.1108
G1 X135.976 Y93.204 E0.1122
G1 X136.269 Y93.709 E0.1280
G1 X136.634 Y94.165 E0.1437
G1 X137.050 Y94.550 E0.1590
G1 X137.380 Y94.788 E0.1699
G1 X137.733 Y94.991 E0.1809
G1 X137.838 Y95.035 E0.1840
G1 X143.590 Y100.787 E0.4031
G1 X143.590 Y99.939 E0.4260
G1 X139.027 Y95.375 E0.5999
G1 X139.403 Y95.413 E0.6100
G1 X139.889 Y95.389 E0.6231
G1 X143.590 Y99.090 E0.7642
G1 X143.590 Y98.241 E0.7870
G1 X140.595 Y95.247 E0.9011
G1 X140.928 Y95.144 E0.9105
G1 X141.207 Y95.010 E0.9189
G1 X143.590 Y97.393 E1.0096
G1 X143.590 Y96.544 E1.0325
G1 X141.741 Y94.696 E1.1029
G1 X141.937 Y94.562 E1.1093
G1 X142.207 Y94.313 E1.1192
G1 X143.590 Y95.696 E1.1719
G1 X143.590 Y94.847 E1.1948
G1 X142.607 Y93.864 E1.2322
G1 X142.720 Y93.723 E1.2371
G1 X142.942 Y93.361 E1.2485
G1 X142.945 Y93.354 E1.2488
G1 X143.590 Y93.999 E1.2733
G1 X143.590 Y93.150 E1.2962
G1 X143.200 Y92.760 E1.3111
G1 X143.332 Y92.293 E1.3241
G1 X143.363 Y92.075 E1.3301
G1 X143.590 Y92.302 E1.3387
G1 X143.590 Y91.453 E1.3616
G1 X143.547 Y91.410 E1.3632
G92 E0.0000
G1 E-4.0000 F2400
G1 X86.410 Y93.670 F4800
G1 E0.0000 F2400
G92 E0.0000
G1 X106.330 Y113.590 E0.7589 F960
G1 X105.481 Y113.590 E0.7818
G1 X86.410 Y94.519 E1.5084
G1 X86.410 Y95.367 E1.5313
G1 X104.633 Y113.590 E2.2256
G1 X103.784 Y113.590 E2.2484
G1 X86.410 Y96.216 E2.9104
G1 X86.410 Y97.064 E2.9332
G1 X102.936 Y113.590 E3.5629
G1 X102.087 Y113.590 E3.5857
G1 X86.410 Y97.913 E4.1830
G1 X86.410 Y98.761 E4.2059
G1 X101.239 Y113.590 E4.7709
G1 X100.390 Y113.590 E4.7937
G1 X86.410 Y99.610 E5.3264
G1 X86.410 Y100.458 E5.3492
G1 X99.542 Y113.590 E5.8495
G1 X98.693 Y113.590 E5.8724
G1 X86.410 Y101.307 E6.3404
G1 X86.410 Y102.155 E6.3632
G1 X97.845 Y113.590 E6.7989
G1 X96.996 Y113.590 E6.8217
G1 X86.410 Y103.004 E7.2251
G1 X86.410 Y103.853 E7.2479
G1 X96.147 Y113.590 E7.6189
G1 X95.299 Y113.590 E7.6418
G1 X86.410 Y104.701 E7.9804
G1 X86.410 Y105.550 E8.0033
G1 X94.450 Y113.590 E8.3096
G1 X93.602 Y113.590 E8.3325
G1 X86.410 Y106.398 E8.6065
G1 X86.410 Y107.247 E8.6294
