; G-Code generated by Simplify3D(R) Version 4.1.2
; Jun 29, 2021 at 2:55:58 PM
; Settings Summary
;   processName,Process1
;   applyToModels,Rpi 4 Case w Fan
;   profileName,Creality Ender 3 (modified)
;   profileVersion,2018-07-11 08:00:00
;   baseProfile,
;   printMaterial,PLA
;   printQuality,High
;   printExtruders,
;   extruderName,Primary Extruder
;   extruderToolheadNumber,0
;   extruderDiameter,0.4
;   extruderAutoWidth,0
;   extruderWidth,0.4
;   extrusionMultiplier,0.9
;   extruderUseRetract,1
;   extruderRetractionDistance,4
;   extruderExtraRestartDistance,0
;   extruderRetractionZLift,0
;   extruderRetractionSpeed,2400
;   extruderUseCoasting,0
;   extruderCoastingDistance,0.2
;   extruderUseWipe,0
;   extruderWipeDistance,5
;   primaryExtruder,0
;   layerHeight,0.1
;   topSolidLayers,4
;   bottomSolidLayers,4
;   perimeterOutlines,2
;   printPerimetersInsideOut,1
;   startPointOption,2
;   startPointOriginX,0
;   startPointOriginY,0
;   sequentialIslands,0
;   spiralVaseMode,0
;   firstLayerHeightPercentage,120
;   firstLayerWidthPercentage,150
;   firstLayerUnderspeed,0.5
;   useRaft,0
;   raftExtruder,0
;   raftTopLayers,3
;   raftBaseLayers,2
;   raftOffset,3
;   raftSeparationDistance,0.14
;   raftTopInfill,100
;   aboveRaftSpeedMultiplier,0.3
;   useSkirt,0
;   skirtExtruder,0
;   skirtLayers,2
;   skirtOutlines,2
;   skirtOffset,4
;   usePrimePillar,0
;   primePillarExtruder,999
;   primePillarWidth,12
;   primePillarLocation,7
;   primePillarSpeedMultiplier,1
;   useOozeShield,0
;   oozeShieldExtruder,999
;   oozeShieldOffset,2
;   oozeShieldOutlines,1
;   oozeShieldSidewallShape,1
;   oozeShieldSidewallAngle,30
;   oozeShieldSpeedMultiplier,1
;   infillExtruder,0
;   internalInfillPattern,Rectilinear
;   externalInfillPattern,Rectilinear
;   infillPercentage,30
;   outlineOverlapPercentage,15
;   infillExtrusionWidthPercentage,100
;   minInfillLength,5
;   infillLayerInterval,1
;   internalInfillAngles,45,-45
;   overlapInternalInfillAngles,0
;   externalInfillAngles,45,-45
;   generateSupport,0
;   supportExtruder,0
;   supportInfillPercentage,40
;   supportExtraInflation,0
;   supportBaseLayers,0
;   denseSupportExtruder,0
;   denseSupportLayers,0
;   denseSupportInfillPercentage,70
;   supportLayerInterval,1
;   supportHorizontalPartOffset,0.3
;   supportUpperSeparationLayers,1
;   supportLowerSeparationLayers,1
;   supportType,0
;   supportGridSpacing,4
;   maxOverhangAngle,45
;   supportAngles,0
;   temperatureName,Primary Extruder,Heated Bed
;   temperatureNumber,0,0
;   temperatureSetpointCount,1,1
;   temperatureSetpointLayers,1,1
;   temperatureSetpointTemperatures,205,60
;   temperatureStabilizeAtStartup,1,1
;   temperatureHeatedBed,0,1
;   fanLayers,1,2
;   fanSpeeds,0,100
;   blipFanToFullPower,0
;   adjustSpeedForCooling,1
;   minSpeedLayerTime,15
;   minCoolingSpeedSlowdown,20
;   increaseFanForCooling,0
;   minFanLayerTime,45
;   maxCoolingFanSpeed,100
;   increaseFanForBridging,0
;   bridgingFanSpeed,100
;   use5D,1
;   relativeEdistances,0
;   allowEaxisZeroing,1
;   independentExtruderAxes,0
;   includeM10123,0
;   stickySupport,1
;   applyToolheadOffsets,0
;   gcodeXoffset,0
;   gcodeYoffset,0
;   gcodeZoffset,0
;   overrideMachineDefinition,1
;   machineTypeOverride,0
;   strokeXoverride,220
;   strokeYoverride,220
;   strokeZoverride,250
;   originOffsetXoverride,-5
;   originOffsetYoverride,-5
;   originOffsetZoverride,0
;   homeXdirOverride,-1
;   homeYdirOverride,-1
;   homeZdirOverride,-1
;   flipXoverride,1
;   flipYoverride,-1
;   flipZoverride,1
;   toolheadOffsets,0,0|0,0|0,0|0,0|0,0|0,0
;   overrideFirmwareConfiguration,1
;   firmwareTypeOverride,RepRap (Marlin/Repetier/Sprinter)
;   GPXconfigOverride,r2
;   baudRateOverride,115200
;   overridePrinterModels,1
;   printerModelsOverride
;   startingGcode,G28 ; home all axes,G1 X5 Y10 Z0.2 F3000 ; get ready to prime,G92 E0 ; reset extrusion distance,G1 X160 E15 F600 ; prime nozzle,G1 X180 F5000 ; quick wipe
;   layerChangeGcode,
;   retractionGcode,
;   toolChangeGcode,
;   endingGcode,G28 X0 ; home X axis,M106 S0 ; turn off cooling fan,M104 S0 ; turn off extruder,M140 S0 ; turn off bed,M84 ; disable motors
;   exportFileFormat,gcode
;   celebration,0
;   celebrationSong,Random Song
;   postProcessing,
;   defaultSpeed,2400
;   outlineUnderspeed,0.5
;   solidInfillUnderspeed,0.8
;   supportUnderspeed,0.8
;   rapidXYspeed,4800
;   rapidZspeed,1000
;   minBridgingArea,50
;   bridgingExtraInflation,0
;   bridgingExtrusionMultiplier,1
;   bridgingSpeedMultiplier,1
;   useFixedBridgingAngle,0
;   fixedBridgingAngle,0
;   applyBridgingToPerimeters,0
;   filamentDiameters,1.75|1.75|1.75|1.75|1.75|1.75
;   filamentPricesPerKg,46|46|46|46|46|46
;   filamentDensities,1.25|1.25|1.25|1.25|1.25|1.25
;   useMinPrintHeight,0
;   minPrintHeight,0
;   useMaxPrintHeight,0
;   maxPrintHeight,0
;   useDiaphragm,0
;   diaphragmLayerInterval,20
;   robustSlicing,1
;   mergeAllIntoSolid,0
;   onlyRetractWhenCrossingOutline,1
;   retractBetweenLayers,1
;   useRetractionMinTravel,1
;   retractionMinTravel,7
;   retractWhileWiping,0
;   onlyWipeOutlines,1
;   avoidCrossingOutline,0
;   maxMovementDetourFactor,3
;   toolChangeRetractionDistance,12
;   toolChangeExtraRestartDistance,-0.5
;   toolChangeRetractionSpeed,600
;   externalThinWallType,0
;   internalThinWallType,2
;   thinWallAllowedOverlapPercentage,10
;   singleExtrusionMinLength,1
;   singleExtrusionMinPrintingWidthPercentage,50
;   singleExtrusionMaxPrintingWidthPercentage,200
;   singleExtrusionEndpointExtension,0.2
;   horizontalSizeCompensation,0
G90
M82
M106 S0
M140 S60
M190 S60
M104 S205 T0
M109 S205 T0
G28 ; home all axes
G1 X5 Y10 Z0.2 F3000 ; get ready to prime
G92 E0 ; reset extrusion distance
G1 X160 E15 F600 ; prime nozzle
G1 X180 F5000 ; quick wipe
; process Process1
; layer 1, Z = 0.120
T0
G92 E0.0000
G1 E-4.0000 F2400
; feature inner perimeter
; tool H0.120 W0.600
G1 Z0.120 F1000
G1 X86.559 Y72.059 F4800
G1 E0.0000 F2400
G92 E0.0000
G1 X89.219 Y72.059 E0.0717 F900
G1 X89.302 Y72.499 E0.0837
G1 X88.978 Y72.626 E0.0931
G1 X88.649 Y72.795 E0.1031
G1 X88.340 Y72.995 E0.1130
G1 X88.051 Y73.225 E0.1229
G1 X87.787 Y73.483 E0.1329
G1 X87.550 Y73.765 E0.1428
G1 X87.342 Y74.070 E0.1528
G1 X87.165 Y74.394 E0.1627
G1 X86.992 Y74.805 E0.1747
G1 X86.559 Y74.718 E0.1866
G1 X86.559 Y72.059 E0.2582
G1 X86.559 Y77.285 F4800
G92 E0.0000
G1 X87.005 Y77.206 E0.0122 F900
G1 X87.090 Y77.438 E0.0188
G1 X87.250 Y77.770 E0.0288
G1 X87.442 Y78.085 E0.0387
G1 X87.665 Y78.379 E0.0487
G1 X87.916 Y78.650 E0.0586
G1 X88.192 Y78.894 E0.0685
G1 X88.492 Y79.109 E0.0785
G1 X88.811 Y79.294 E0.0884
G1 X89.158 Y79.450 E0.0987
G1 X89.665 Y79.606 E0.1130
G1 X90.040 Y79.672 E0.1232
G1 X90.408 Y79.700 E0.1331
G1 X90.777 Y79.691 E0.1431
G1 X91.143 Y79.645 E0.1530
G1 X91.502 Y79.563 E0.1630
G1 X91.852 Y79.445 E0.1729
G1 X92.189 Y79.293 E0.1829
G1 X92.508 Y79.109 E0.1928
G1 X92.808 Y78.894 E0.2027
G1 X93.084 Y78.650 E0.2127
G1 X93.335 Y78.379 E0.2226
G1 X93.558 Y78.085 E0.2326
G1 X93.750 Y77.770 E0.2425
G1 X93.910 Y77.438 E0.2524
G1 X94.037 Y77.091 E0.2624
G1 X94.128 Y76.733 E0.2723
G1 X94.183 Y76.369 E0.2823
G1 X94.201 Y76.000 E0.2922
G1 X94.183 Y75.631 E0.3021
G1 X94.128 Y75.267 E0.3121
G1 X94.037 Y74.909 E0.3220
G1 X93.910 Y74.562 E0.3320
G1 X93.750 Y74.230 E0.3419
G1 X93.558 Y73.915 E0.3518
G1 X93.335 Y73.621 E0.3618
G1 X93.084 Y73.351 E0.3717
G1 X92.808 Y73.106 E0.3817
G1 X92.508 Y72.891 E0.3916
G1 X92.188 Y72.706 E0.4015
G1 X91.700 Y72.486 E0.4160
G1 X91.792 Y72.060 E0.4277
G1 X138.207 Y72.064 E1.6782
G1 X138.290 Y72.504 E1.6902
G1 X137.978 Y72.626 E1.6993
G1 X137.649 Y72.795 E1.7092
G1 X137.339 Y72.995 E1.7191
G1 X137.051 Y73.225 E1.7291
G1 X136.787 Y73.483 E1.7390
G1 X136.550 Y73.765 E1.7490
G1 X136.342 Y74.070 E1.7589
G1 X136.165 Y74.394 E1.7688
G1 X136.022 Y74.734 E1.7788
G1 X135.913 Y75.087 E1.7887
G1 X135.840 Y75.448 E1.7987
G1 X135.802 Y75.827 E1.8089
G1 X135.816 Y76.357 E1.8232
G1 X135.872 Y76.733 E1.8334
G1 X135.963 Y77.091 E1.8434
G1 X136.093 Y77.448 E1.8536
G1 X136.336 Y77.921 E1.8679
G1 X136.550 Y78.235 E1.8782
G1 X136.787 Y78.517 E1.8881
G1 X137.051 Y78.775 E1.8981
G1 X137.339 Y79.005 E1.9080
G1 X137.649 Y79.205 E1.9179
G1 X137.978 Y79.374 E1.9279
G1 X138.321 Y79.508 E1.9378
G1 X138.676 Y79.608 E1.9478
G1 X139.040 Y79.672 E1.9577
G1 X139.408 Y79.700 E1.9676
G1 X139.777 Y79.691 E1.9776
G1 X140.154 Y79.643 E1.9878
G1 X140.668 Y79.513 E2.0021
G1 X141.022 Y79.374 E2.0124
G1 X141.351 Y79.205 E2.0223
G1 X141.660 Y79.005 E2.0322
G1 X141.949 Y78.775 E2.0422
G1 X142.213 Y78.517 E2.0521
G1 X142.450 Y78.235 E2.0621
G1 X142.658 Y77.930 E2.0720
G1 X142.835 Y77.606 E2.0820
G1 X143.008 Y77.195 E2.0940
G1 X143.441 Y77.282 E2.1059
G1 X143.441 Y132.715 E3.5993
G1 X142.995 Y132.794 E3.6115
G1 X142.911 Y132.562 E3.6181
G1 X142.750 Y132.230 E3.6280
G1 X142.558 Y131.915 E3.6380
G1 X142.335 Y131.621 E3.6479
G1 X142.084 Y131.350 E3.6579
G1 X141.808 Y131.106 E3.6678
G1 X141.508 Y130.891 E3.6777
G1 X141.188 Y130.706 E3.6877
G1 X140.852 Y130.555 E3.6976
G1 X140.502 Y130.437 E3.7076
G1 X140.143 Y130.355 E3.7175
G1 X139.777 Y130.309 E3.7274
G1 X139.408 Y130.300 E3.7374
G1 X139.040 Y130.328 E3.7473
G1 X138.676 Y130.392 E3.7573
G1 X138.321 Y130.492 E3.7672
G1 X137.978 Y130.626 E3.7771
G1 X137.649 Y130.795 E3.7871
G1 X137.339 Y130.995 E3.7970
G1 X137.051 Y131.225 E3.8070
G1 X136.787 Y131.483 E3.8169
G1 X136.550 Y131.765 E3.8268
G1 X136.342 Y132.070 E3.8368
G1 X136.165 Y132.394 E3.8467
G1 X136.022 Y132.734 E3.8567
G1 X135.913 Y133.087 E3.8666
G1 X135.840 Y133.448 E3.8765
G1 X135.802 Y133.827 E3.8868
G1 X135.816 Y134.357 E3.9011
G1 X135.872 Y134.733 E3.9113
G1 X135.963 Y135.091 E3.9213
G1 X136.089 Y135.438 E3.9312
G1 X136.250 Y135.770 E3.9412
G1 X136.448 Y136.095 E3.9514
G1 X136.779 Y136.510 E3.9657
G1 X137.051 Y136.775 E3.9759
G1 X137.339 Y137.005 E3.9859
G1 X137.649 Y137.205 E3.9958
G1 X137.978 Y137.374 E4.0058
G1 X138.321 Y137.508 E4.0157
G1 X138.676 Y137.608 E4.0256
G1 X139.040 Y137.672 E4.0356
G1 X139.408 Y137.700 E4.0455
G1 X139.777 Y137.691 E4.0555
G1 X140.154 Y137.643 E4.0657
G1 X140.668 Y137.513 E4.0800
G1 X141.022 Y137.374 E4.0903
G1 X141.351 Y137.205 E4.1002
G1 X141.661 Y137.005 E4.1101
G1 X141.949 Y136.775 E4.1201
G1 X142.213 Y136.517 E4.1300
G1 X142.450 Y136.235 E4.1400
G1 X142.658 Y135.930 E4.1499
G1 X142.835 Y135.606 E4.1598
G1 X143.008 Y135.195 E4.1719
G1 X143.441 Y135.282 E4.1838
G1 X143.441 Y157.941 E4.7942
G1 X86.559 Y157.941 E6.3266
G1 X86.559 Y135.285 E6.9370
G1 X87.005 Y135.206 E6.9492
G1 X87.090 Y135.438 E6.9558
G1 X87.250 Y135.770 E6.9658
G1 X87.442 Y136.085 E6.9757
G1 X87.665 Y136.379 E6.9857
G1 X87.916 Y136.650 E6.9956
G1 X88.192 Y136.894 E7.0055
G1 X88.492 Y137.109 E7.0155
G1 X88.812 Y137.293 E7.0254
G1 X89.158 Y137.450 E7.0357
G1 X89.665 Y137.606 E7.0500
G1 X90.040 Y137.672 E7.0602
G1 X90.408 Y137.700 E7.0701
G1 X90.777 Y137.691 E7.0801
G1 X91.143 Y137.645 E7.0900
G1 X91.502 Y137.563 E7.1000
G1 X91.852 Y137.445 E7.1099
G1 X92.188 Y137.293 E7.1198
G1 X92.508 Y137.109 E7.1298
G1 X92.808 Y136.894 E7.1397
G1 X93.084 Y136.650 E7.1497
G1 X93.335 Y136.379 E7.1596
G1 X93.558 Y136.085 E7.1696
G1 X93.750 Y135.770 E7.1795
G1 X93.910 Y135.438 E7.1894
G1 X94.037 Y135.091 E7.1994
G1 X94.128 Y134.733 E7.2093
G1 X94.183 Y134.369 E7.2193
G1 X94.201 Y134.000 E7.2292
G1 X94.183 Y133.631 E7.2391
G1 X94.128 Y133.267 E7.2491
G1 X94.037 Y132.909 E7.2590
G1 X93.910 Y132.562 E7.2690
G1 X93.750 Y132.230 E7.2789
G1 X93.558 Y131.915 E7.2888
G1 X93.335 Y131.621 E7.2988
G1 X93.084 Y131.350 E7.3087
G1 X92.808 Y131.106 E7.3187
G1 X92.508 Y130.891 E7.3286
G1 X92.188 Y130.706 E7.3385
G1 X91.842 Y130.550 E7.3488
G1 X91.335 Y130.394 E7.3631
G1 X90.960 Y130.328 E7.3733
G1 X90.581 Y130.299 E7.3836
G1 X90.051 Y130.326 E7.3979
G1 X89.676 Y130.392 E7.4081
G1 X89.321 Y130.492 E7.4181
G1 X88.978 Y130.626 E7.4280
G1 X88.649 Y130.795 E7.4379
G1 X88.340 Y130.995 E7.4479
G1 X88.051 Y131.225 E7.4578
G1 X87.787 Y131.483 E7.4678
G1 X87.550 Y131.765 E7.4777
G1 X87.342 Y132.070 E7.4876
G1 X87.165 Y132.394 E7.4976
G1 X86.992 Y132.805 E7.5096
G1 X86.559 Y132.718 E7.5215
G1 X86.559 Y77.285 E9.0149
G92 E0.0000
G1 E-4.0000 F2400
G1 X140.711 Y72.504 F4800
G1 E0.0000 F2400
G92 E0.0000
G1 X140.794 Y72.065 E0.0121 F900
G1 X143.441 Y72.065 E0.0834
G1 X143.441 Y74.718 E0.1548
G1 X143.008 Y74.805 E0.1667
G1 X142.835 Y74.394 E0.1787
G1 X142.658 Y74.070 E0.1887
G1 X142.450 Y73.765 E0.1986
G1 X142.213 Y73.483 E0.2086
G1 X141.949 Y73.225 E0.2185
G1 X141.660 Y72.995 E0.2285
G1 X141.351 Y72.795 E0.2384
G1 X141.022 Y72.626 E0.2483
G1 X140.711 Y72.504 E0.2573
; feature outer perimeter
G1 X144.007 Y71.465 F4800
G92 E0.0000
G1 X144.016 Y71.468 E0.0003 F600
G1 X144.030 Y71.481 E0.0008
G1 X144.041 Y71.532 E0.0022
G1 X144.041 Y158.468 E2.3443
G1 X144.029 Y158.523 E2.3458
G1 X144.025 Y158.527 E2.3460
G1 X143.965 Y158.541 E2.3476
G1 X86.029 Y158.541 E3.9085
G1 X85.987 Y158.533 E3.9096
G1 X85.971 Y158.513 E3.9103
G1 X85.959 Y158.465 E3.9116
G1 X85.959 Y71.532 E6.2537
G1 X85.971 Y71.477 E6.2552
G1 X85.975 Y71.473 E6.2553
G1 X86.035 Y71.459 E6.2570
G1 X144.007 Y71.465 E7.8188
G1 X141.773 Y73.891 F4800
G92 E0.0000
G1 X141.551 Y73.675 E0.0083 F600
G1 X141.310 Y73.483 E0.0167
G1 X141.050 Y73.315 E0.0250
G1 X140.775 Y73.174 E0.0333
G1 X140.487 Y73.061 E0.0416
G1 X140.190 Y72.977 E0.0500
G1 X139.886 Y72.924 E0.0583
G1 X139.577 Y72.901 E0.0666
G1 X139.268 Y72.908 E0.0749
G1 X138.958 Y72.947 E0.0834
G1 X138.516 Y73.060 E0.0957
G1 X138.225 Y73.174 E0.1041
G1 X137.950 Y73.315 E0.1124
G1 X137.690 Y73.483 E0.1207
G1 X137.449 Y73.675 E0.1291
G1 X137.227 Y73.891 E0.1374
G1 X137.029 Y74.128 E0.1457
G1 X136.854 Y74.383 E0.1540
G1 X136.707 Y74.655 E0.1624
G1 X136.587 Y74.940 E0.1707
G1 X136.495 Y75.235 E0.1790
G1 X136.434 Y75.538 E0.1873
G1 X136.403 Y75.849 E0.1958
G1 X136.414 Y76.305 E0.2081
G1 X136.461 Y76.614 E0.2165
G1 X136.537 Y76.914 E0.2248
G1 X136.644 Y77.208 E0.2332
G1 X136.852 Y77.614 E0.2455
G1 X137.029 Y77.872 E0.2540
G1 X137.227 Y78.109 E0.2623
G1 X137.449 Y78.325 E0.2706
G1 X137.690 Y78.517 E0.2789
G1 X137.950 Y78.685 E0.2873
G1 X138.225 Y78.826 E0.2956
G1 X138.513 Y78.939 E0.3039
G1 X138.810 Y79.023 E0.3122
G1 X139.114 Y79.076 E0.3206
G1 X139.423 Y79.099 E0.3289
G1 X139.732 Y79.092 E0.3372
G1 X140.042 Y79.053 E0.3457
G1 X140.484 Y78.940 E0.3579
G1 X140.775 Y78.826 E0.3664
G1 X141.050 Y78.685 E0.3747
G1 X141.310 Y78.517 E0.3830
G1 X141.551 Y78.325 E0.3913
G1 X141.773 Y78.109 E0.3997
G1 X141.971 Y77.872 E0.4080
G1 X142.146 Y77.617 E0.4163
G1 X142.293 Y77.345 E0.4247
G1 X142.413 Y77.060 E0.4330
G1 X142.504 Y76.765 E0.4413
G1 X142.566 Y76.462 E0.4496
G1 X142.597 Y76.155 E0.4580
G1 X142.597 Y75.845 E0.4663
G1 X142.566 Y75.538 E0.4746
G1 X142.504 Y75.235 E0.4829
G1 X142.413 Y74.940 E0.4913
G1 X142.293 Y74.655 E0.4996
G1 X142.146 Y74.383 E0.5079
G1 X141.971 Y74.128 E0.5162
G1 X141.773 Y73.891 E0.5246
G92 E0.0000
G1 E-4.0000 F2400
; feature inner perimeter
G1 X128.819 Y90.737 F4800
G1 E0.0000 F2400
G92 E0.0000
G1 X128.442 Y90.480 E0.0123 F900
G1 X127.925 Y90.247 E0.0276
G1 X127.361 Y90.118 E0.0432
G1 X126.783 Y90.104 E0.0587
G1 X126.213 Y90.204 E0.0743
G1 X125.675 Y90.415 E0.0899
G1 X125.189 Y90.729 E0.1055
G1 X124.775 Y91.133 E0.1211
G1 X124.449 Y91.611 E0.1366
G1 X124.225 Y92.144 E0.1522
G1 X124.108 Y92.722 E0.1681
G1 X124.124 Y93.407 E0.1866
G1 X124.229 Y93.866 E0.1993
G1 X124.449 Y94.389 E0.2146
G1 X124.775 Y94.867 E0.2301
G1 X125.189 Y95.271 E0.2457
G1 X125.675 Y95.585 E0.2613
G1 X126.213 Y95.796 E0.2769
