; G-Code generated by Simplify3D(R) Version 4.1.2
; Jul 6, 2021 at 7:27:37 AM
; Settings Summary
;   processName,Process1
;   applyToModels,Case Top w Ears
;   profileName,Creality Ender 3 (modified)
;   profileVersion,2018-07-11 08:00:00
;   baseProfile,
;   printMaterial,PLA
;   printQuality,High
;   printExtruders,
;   extruderName,Primary Extruder
;   extruderToolheadNumber,0
;   extruderDiameter,0.4
;   extruderAutoWidth,0
;   extruderWidth,0.4
;   extrusionMultiplier,0.9
;   extruderUseRetract,1
;   extruderRetractionDistance,4
;   extruderExtraRestartDistance,0
;   extruderRetractionZLift,0
;   extruderRetractionSpeed,2400
;   extruderUseCoasting,0
;   extruderCoastingDistance,0.2
;   extruderUseWipe,0
;   extruderWipeDistance,5
;   primaryExtruder,0
;   layerHeight,0.1
;   topSolidLayers,4
;   bottomSolidLayers,4
;   perimeterOutlines,2
;   printPerimetersInsideOut,1
;   startPointOption,2
;   startPointOriginX,0
;   startPointOriginY,0
;   sequentialIslands,0
;   spiralVaseMode,0
;   firstLayerHeightPercentage,120
;   firstLayerWidthPercentage,150
;   firstLayerUnderspeed,0.5
;   useRaft,0
;   raftExtruder,0
;   raftTopLayers,3
;   raftBaseLayers,2
;   raftOffset,3
;   raftSeparationDistance,0.14
;   raftTopInfill,100
;   aboveRaftSpeedMultiplier,0.3
;   useSkirt,0
;   skirtExtruder,0
;   skirtLayers,2
;   skirtOutlines,2
;   skirtOffset,4
;   usePrimePillar,0
;   primePillarExtruder,999
;   primePillarWidth,12
;   primePillarLocation,7
;   primePillarSpeedMultiplier,1
;   useOozeShield,0
;   oozeShieldExtruder,999
;   oozeShieldOffset,2
;   oozeShieldOutlines,1
;   oozeShieldSidewallShape,1
;   oozeShieldSidewallAngle,30
;   oozeShieldSpeedMultiplier,1
;   infillExtruder,0
;   internalInfillPattern,Rectilinear
;   externalInfillPattern,Rectilinear
;   infillPercentage,30
;   outlineOverlapPercentage,15
;   infillExtrusionWidthPercentage,100
;   minInfillLength,5
;   infillLayerInterval,1
;   internalInfillAngles,45,-45
;   overlapInternalInfillAngles,0
;   externalInfillAngles,45,-45
;   generateSupport,1
;   supportExtruder,0
;   supportInfillPercentage,40
;   supportExtraInflation,0
;   supportBaseLayers,0
;   denseSupportExtruder,0
;   denseSupportLayers,0
;   denseSupportInfillPercentage,70
;   supportLayerInterval,1
;   supportHorizontalPartOffset,0.3
;   supportUpperSeparationLayers,1
;   supportLowerSeparationLayers,1
;   supportType,0
;   supportGridSpacing,4
;   maxOverhangAngle,44
;   supportAngles,0,45
;   temperatureName,Primary Extruder,Heated Bed
;   temperatureNumber,0,0
;   temperatureSetpointCount,1,1
;   temperatureSetpointLayers,1,1
;   temperatureSetpointTemperatures,200,60
;   temperatureStabilizeAtStartup,1,1
;   temperatureHeatedBed,0,1
;   fanLayers,1,2
;   fanSpeeds,0,100
;   blipFanToFullPower,0
;   adjustSpeedForCooling,1
;   minSpeedLayerTime,15
;   minCoolingSpeedSlowdown,20
;   increaseFanForCooling,0
;   minFanLayerTime,45
;   maxCoolingFanSpeed,100
;   increaseFanForBridging,0
;   bridgingFanSpeed,100
;   use5D,1
;   relativeEdistances,0
;   allowEaxisZeroing,1
;   independentExtruderAxes,0
;   includeM10123,0
;   stickySupport,1
;   applyToolheadOffsets,0
;   gcodeXoffset,0
;   gcodeYoffset,0
;   gcodeZoffset,0
;   overrideMachineDefinition,1
;   machineTypeOverride,0
;   strokeXoverride,220
;   strokeYoverride,220
;   strokeZoverride,250
;   originOffsetXoverride,-5
;   originOffsetYoverride,-5
;   originOffsetZoverride,0
;   homeXdirOverride,-1
;   homeYdirOverride,-1
;   homeZdirOverride,-1
;   flipXoverride,1
;   flipYoverride,-1
;   flipZoverride,1
;   toolheadOffsets,0,0|0,0|0,0|0,0|0,0|0,0
;   overrideFirmwareConfiguration,1
;   firmwareTypeOverride,RepRap (Marlin/Repetier/Sprinter)
;   GPXconfigOverride,r2
;   baudRateOverride,115200
;   overridePrinterModels,1
;   printerModelsOverride
;   startingGcode,G28 ; home all axes,G1 X5 Y10 Z0.2 F3000 ; get ready to prime,G92 E0 ; reset extrusion distance,G1 X160 E15 F600 ; prime nozzle,G1 X180 F5000 ; quick wipe
;   layerChangeGcode,
;   retractionGcode,
;   toolChangeGcode,
;   endingGcode,G28 X0 ; home X axis,M106 S0 ; turn off cooling fan,M104 S0 ; turn off extruder,M140 S0 ; turn off bed,M84 ; disable motors
;   exportFileFormat,gcode
;   celebration,0
;   celebrationSong,Random Song
;   postProcessing,
;   defaultSpeed,2400
;   outlineUnderspeed,0.5
;   solidInfillUnderspeed,0.8
;   supportUnderspeed,0.8
;   rapidXYspeed,4800
;   rapidZspeed,1000
;   minBridgingArea,50
;   bridgingExtraInflation,0
;   bridgingExtrusionMultiplier,1
;   bridgingSpeedMultiplier,1
;   useFixedBridgingAngle,0
;   fixedBridgingAngle,0
;   applyBridgingToPerimeters,0
;   filamentDiameters,1.75|1.75|1.75|1.75|1.75|1.75
;   filamentPricesPerKg,46|46|46|46|46|46
;   filamentDensities,1.25|1.25|1.25|1.25|1.25|1.25
;   useMinPrintHeight,0
;   minPrintHeight,0
;   useMaxPrintHeight,0
;   maxPrintHeight,0
;   useDiaphragm,0
;   diaphragmLayerInterval,20
;   robustSlicing,1
;   mergeAllIntoSolid,0
;   onlyRetractWhenCrossingOutline,1
;   retractBetweenLayers,1
;   useRetractionMinTravel,1
;   retractionMinTravel,7
;   retractWhileWiping,0
;   onlyWipeOutlines,1
;   avoidCrossingOutline,0
;   maxMovementDetourFactor,3
;   toolChangeRetractionDistance,12
;   toolChangeExtraRestartDistance,-0.5
;   toolChangeRetractionSpeed,600
;   externalThinWallType,0
;   internalThinWallType,2
;   thinWallAllowedOverlapPercentage,10
;   singleExtrusionMinLength,1
;   singleExtrusionMinPrintingWidthPercentage,50
;   singleExtrusionMaxPrintingWidthPercentage,200
;   singleExtrusionEndpointExtension,0.2
;   horizontalSizeCompensation,0
G90
M82
M106 S0
M140 S60
M190 S60
M104 S200 T0
M109 S200 T0
G28 ; home all axes
G1 X5 Y10 Z0.2 F3000 ; get ready to prime
G92 E0 ; reset extrusion distance
G1 X160 E15 F600 ; prime nozzle
G1 X180 F5000 ; quick wipe
; process Process1
; layer 1, Z = 0.120
T0
G92 E0.0000
G1 E-4.0000 F2400
; feature inner perimeter
; tool H0.120 W0.600
G1 Z0.120 F1000
G1 X71.231 Y78.086 F4800
G1 E0.0000 F2400
G92 E0.0000
G1 X71.413 Y77.942 E0.0062 F900
G1 X71.851 Y77.643 E0.0205
G1 X72.052 Y77.527 E0.0268
G1 X72.530 Y77.297 E0.0411
G1 X72.746 Y77.212 E0.0473
G1 X73.242 Y77.059 E0.0613
G1 X73.741 Y76.958 E0.0750
G1 X74.247 Y76.907 E0.0887
G1 X84.101 Y76.899 E0.3542
G1 X84.101 Y87.101 E0.6290
G1 X74.236 Y87.093 E0.8948
G1 X74.004 Y87.075 E0.9011
G1 X73.490 Y86.998 E0.9151
G1 X72.998 Y86.872 E0.9288
G1 X72.520 Y86.699 E0.9425
G1 X72.052 Y86.473 E0.9565
G1 X71.851 Y86.357 E0.9627
G1 X71.422 Y86.065 E0.9767
G1 X71.032 Y85.738 E0.9904
G1 X70.670 Y85.366 E1.0044
G1 X70.513 Y85.180 E1.0109
G1 X70.367 Y84.986 E1.0175
G1 X70.079 Y84.540 E1.0318
G1 X69.968 Y84.337 E1.0380
G1 X69.754 Y83.863 E1.0520
G1 X69.589 Y83.370 E1.0660
G1 X69.531 Y83.146 E1.0723
G1 X69.439 Y82.623 E1.0866
G1 X69.415 Y82.381 E1.0931
G1 X69.403 Y82.138 E1.0997
G1 X69.416 Y81.608 E1.1140
G1 X69.439 Y81.377 E1.1202
G1 X69.529 Y80.865 E1.1342
G1 X69.670 Y80.365 E1.1482
G1 X69.749 Y80.147 E1.1544
G1 X69.968 Y79.664 E1.1687
G1 X70.079 Y79.460 E1.1750
G1 X70.367 Y79.014 E1.1893
G1 X70.507 Y78.829 E1.1955
G1 X70.850 Y78.440 E1.2095
G1 X71.231 Y78.086 E1.2235
G92 E0.0000
G1 E-4.0000 F2400
G1 X83.673 Y138.389 F4800
G1 E0.0000 F2400
G92 E0.0000
G1 X84.101 Y138.481 E0.0118 F900
G1 X84.101 Y144.400 E0.1712
G1 X90.967 Y144.400 E0.3562
G1 X77.729 Y173.939 E1.2283
G1 X77.468 Y174.147 E1.2373
G1 X77.040 Y174.422 E1.2510
G1 X76.587 Y174.652 E1.2647
G1 X76.114 Y174.837 E1.2784
G1 X75.624 Y174.974 E1.2921
G1 X75.123 Y175.061 E1.3058
G1 X74.616 Y175.098 E1.3195
G1 X74.108 Y175.084 E1.3332
G1 X73.604 Y175.019 E1.3469
G1 X73.108 Y174.905 E1.3605
G1 X72.627 Y174.742 E1.3742
G1 X72.164 Y174.532 E1.3879
G1 X71.724 Y174.277 E1.4016
G1 X71.312 Y173.979 E1.4153
G1 X70.932 Y173.642 E1.4290
G1 X70.587 Y173.269 E1.4427
G1 X70.281 Y172.863 E1.4564
G1 X70.017 Y172.428 E1.4701
G1 X69.798 Y171.970 E1.4838
G1 X69.625 Y171.492 E1.4975
G1 X69.500 Y170.999 E1.5112
G1 X69.426 Y170.496 E1.5249
G1 X69.402 Y169.989 E1.5386
G1 X69.428 Y169.481 E1.5523
G1 X69.505 Y168.978 E1.5660
G1 X69.632 Y168.486 E1.5797
G1 X69.810 Y167.998 E1.5937
G1 X69.906 Y167.787 E1.5999
G1 X70.156 Y167.331 E1.6139
G1 X70.443 Y166.912 E1.6276
G1 X70.771 Y166.524 E1.6413
G1 X71.291 Y166.018 E1.6608
G1 X83.673 Y138.389 E2.4765
; feature outer perimeter
G1 X83.301 Y137.754 F4800
G92 E0.0000
G1 X83.301 Y87.700 E1.3485 F600
G1 X74.213 Y87.693 E1.5933
G1 X73.937 Y87.672 E1.6008
G1 X73.371 Y87.587 E1.6162
G1 X72.821 Y87.446 E1.6315
G1 X72.287 Y87.252 E1.6468
G1 X71.771 Y87.004 E1.6622
G1 X71.532 Y86.866 E1.6697
G1 X71.059 Y86.543 E1.6851
G1 X70.624 Y86.178 E1.7004
G1 X70.224 Y85.769 E1.7158
G1 X70.044 Y85.554 E1.7233
G1 X69.875 Y85.330 E1.7309
G1 X69.562 Y84.847 E1.7464
G1 X69.430 Y84.604 E1.7539
G1 X69.195 Y84.082 E1.7693
G1 X69.013 Y83.540 E1.7847
G1 X68.944 Y83.272 E1.7921
G1 X68.845 Y82.705 E1.8076
G1 X68.817 Y82.426 E1.8152
G1 X68.803 Y82.146 E1.8228
G1 X68.817 Y81.570 E1.8383
G1 X68.845 Y81.295 E1.8457
G1 X68.944 Y80.732 E1.8611
G1 X69.099 Y80.181 E1.8765
G1 X69.193 Y79.921 E1.8840
G1 X69.430 Y79.396 E1.8995
G1 X69.563 Y79.153 E1.9070
G1 X69.875 Y78.670 E1.9225
G1 X70.042 Y78.449 E1.9299
G1 X70.420 Y78.020 E1.9453
G1 X70.840 Y77.631 E1.9607
G1 X71.056 Y77.459 E1.9682
G1 X71.532 Y77.135 E1.9837
G1 X71.771 Y76.996 E1.9912
G1 X72.290 Y76.746 E2.0067
G1 X72.548 Y76.645 E2.0141
G1 X73.094 Y76.477 E2.0295
G1 X73.651 Y76.364 E2.0448
G1 X74.217 Y76.307 E2.0602
G1 X83.301 Y76.300 E2.3049
G1 X83.301 Y54.300 E2.8976
G1 X84.701 Y54.300 E2.9353
G1 X84.701 Y143.800 E5.3465
G1 X98.701 Y143.800 E5.7237
G1 X98.701 Y145.200 E5.7614
G1 X91.266 Y145.200 E5.9617
G1 X78.217 Y174.318 E6.8213
G1 X77.817 Y174.635 E6.8350
G1 X77.339 Y174.943 E6.8503
G1 X76.833 Y175.201 E6.8657
G1 X76.304 Y175.407 E6.8810
G1 X75.756 Y175.560 E6.8963
G1 X75.196 Y175.657 E6.9116
G1 X74.630 Y175.698 E6.9269
G1 X74.062 Y175.683 E6.9422
G1 X73.498 Y175.611 E6.9575
G1 X72.944 Y175.483 E6.9728
G1 X72.406 Y175.301 E6.9881
G1 X71.889 Y175.066 E7.0034
G1 X71.397 Y174.781 E7.0187
G1 X70.937 Y174.448 E7.0340
G1 X70.512 Y174.071 E7.0493
G1 X70.126 Y173.654 E7.0647
G1 X69.784 Y173.200 E7.0800
G1 X69.489 Y172.715 E7.0953
G1 X69.243 Y172.202 E7.1106
G1 X69.050 Y171.668 E7.1259
G1 X68.911 Y171.117 E7.1412
G1 X68.828 Y170.555 E7.1565
G1 X68.801 Y169.987 E7.1718
G1 X68.831 Y169.420 E7.1871
G1 X68.917 Y168.858 E7.2024
G1 X69.058 Y168.308 E7.2177
G1 X69.255 Y167.771 E7.2331
G1 X69.369 Y167.519 E7.2406
G1 X69.644 Y167.017 E7.2560
G1 X69.965 Y166.548 E7.2713
G1 X70.331 Y166.114 E7.2866
G1 X70.791 Y165.668 E7.3039
G1 X83.301 Y137.754 E8.1280
; feature inner perimeter
G1 X75.147 Y167.168 F4800
G92 E0.0000
G1 X74.573 Y167.096 E0.0156 F900
G1 X73.996 Y167.140 E0.0312
G1 X73.439 Y167.296 E0.0467
G1 X72.925 Y167.560 E0.0623
G1 X72.472 Y167.921 E0.0779
G1 X72.101 Y168.364 E0.0935
G1 X71.830 Y168.862 E0.1088
G1 X71.684 Y169.295 E0.1211
G1 X71.600 Y169.855 E0.1363
G1 X71.628 Y170.433 E0.1519
G1 X71.771 Y170.993 E0.1675
G1 X72.017 Y171.504 E0.1828
G1 X72.284 Y171.875 E0.1951
G1 X72.690 Y172.271 E0.2104
G1 X73.175 Y172.585 E0.2259
G1 X73.714 Y172.796 E0.2415
G1 X74.283 Y172.896 E0.2571
G1 X74.862 Y172.882 E0.2727
G1 X75.426 Y172.753 E0.2883
G1 X75.953 Y172.515 E0.3039
G1 X76.422 Y172.178 E0.3194
G1 X76.816 Y171.754 E0.3350
G1 X77.117 Y171.260 E0.3506
G1 X77.312 Y170.727 E0.3659
G1 X77.393 Y170.263 E0.3786
G1 X77.375 Y169.578 E0.3970
G1 X77.230 Y169.007 E0.4129
G1 X76.979 Y168.486 E0.4285
G1 X76.630 Y168.024 E0.4441
G1 X76.196 Y167.642 E0.4597
G1 X75.695 Y167.353 E0.4753
G1 X75.147 Y167.168 E0.4908
; feature outer perimeter
G1 X75.013 Y167.756 F4800
G92 E0.0000
G1 X74.558 Y167.699 E0.0123 F600
G1 X74.101 Y167.734 E0.0247
G1 X73.660 Y167.858 E0.0370
G1 X73.252 Y168.067 E0.0494
G1 X72.894 Y168.352 E0.0617
G1 X72.599 Y168.704 E0.0741
G1 X72.382 Y169.103 E0.0863
G1 X72.270 Y169.436 E0.0958
G1 X72.202 Y169.885 E0.1080
G1 X72.225 Y170.343 E0.1204
G1 X72.338 Y170.787 E0.1327
G1 X72.535 Y171.197 E0.1450
G1 X72.740 Y171.482 E0.1544
G1 X73.066 Y171.799 E0.1667
G1 X73.451 Y172.048 E0.1790
G1 X73.877 Y172.216 E0.1914
G1 X74.329 Y172.295 E0.2037
G1 X74.787 Y172.284 E0.2161
G1 X75.234 Y172.182 E0.2284
G1 X75.651 Y171.993 E0.2408
G1 X76.023 Y171.726 E0.2531
G1 X76.335 Y171.390 E0.2655
G1 X76.574 Y170.999 E0.2778
G1 X76.730 Y170.571 E0.2901
G1 X76.791 Y170.218 E0.2997
G1 X76.777 Y169.661 E0.3148
G1 X76.663 Y169.213 E0.3272
G1 X76.464 Y168.800 E0.3395
G1 X76.188 Y168.435 E0.3519
G1 X75.844 Y168.131 E0.3642
G1 X75.447 Y167.902 E0.3766
G1 X75.013 Y167.756 E0.3889
G92 E0.0000
G1 E-4.0000 F2400
; feature inner perimeter
G1 X74.729 Y84.894 F4800
G1 E0.0000 F2400
G92 E0.0000
G1 X75.287 Y84.796 E0.0153 F900
G1 X75.826 Y84.585 E0.0309
G1 X76.311 Y84.271 E0.0464
G1 X76.726 Y83.867 E0.0620
G1 X77.051 Y83.389 E0.0776
G1 X77.276 Y82.856 E0.0932
G1 X77.391 Y82.289 E0.1088
G1 X77.391 Y81.711 E0.1244
G1 X77.278 Y81.155 E0.1396
G1 X77.112 Y80.730 E0.1519
G1 X76.816 Y80.246 E0.1672
G1 X76.422 Y79.822 E0.1828
G1 X75.953 Y79.485 E0.1984
G1 X75.426 Y79.247 E0.2140
G1 X74.862 Y79.118 E0.2295
G1 X74.283 Y79.104 E0.2451
G1 X73.714 Y79.204 E0.2607
G1 X73.175 Y79.415 E0.2763
G1 X72.690 Y79.729 E0.2919
G1 X72.283 Y80.125 E0.3072
G1 X72.009 Y80.508 E0.3198
G1 X71.727 Y81.133 E0.3383
G1 X71.610 Y81.711 E0.3542
G1 X71.610 Y82.289 E0.3698
G1 X71.725 Y82.856 E0.3853
G1 X71.950 Y83.389 E0.4009
G1 X72.276 Y83.867 E0.4165
G1 X72.690 Y84.271 E0.4321
G1 X73.175 Y84.585 E0.4477
G1 X73.714 Y84.796 E0.4633
G1 X74.272 Y84.894 E0.4785
G1 X74.729 Y84.894 E0.4908
; feature outer perimeter
G1 X74.676 Y84.294 F4800
G92 E0.0000
G1 X75.124 Y84.216 E0.0122 F600
G1 X75.551 Y84.048 E0.0246
G1 X75.935 Y83.799 E0.0369
G1 X76.264 Y83.479 E0.0493
G1 X76.522 Y83.101 E0.0616
G1 X76.700 Y82.678 E0.0740
G1 X76.791 Y82.229 E0.0863
G1 X76.791 Y81.771 E0.0987
G1 X76.701 Y81.325 E0.1109
G1 X76.572 Y80.998 E0.1204
G1 X76.335 Y80.610 E0.1326
G1 X76.023 Y80.274 E0.1450
G1 X75.651 Y80.007 E0.1573
G1 X75.234 Y79.818 E0.1697
G1 X74.787 Y79.716 E0.1820
G1 X74.329 Y79.705 E0.1944
G1 X73.877 Y79.785 E0.2067
G1 X73.451 Y79.952 E0.2191
G1 X73.066 Y80.201 E0.2314
G1 X72.740 Y80.518 E0.2437
G1 X72.531 Y80.809 E0.2533
G1 X72.302 Y81.318 E0.2683
G1 X72.210 Y81.771 E0.2808
G1 X72.210 Y82.229 E0.2931
G1 X72.301 Y82.678 E0.3055
G1 X72.479 Y83.101 E0.3178
G1 X72.737 Y83.479 E0.3302
G1 X73.066 Y83.799 E0.3425
G1 X73.451 Y84.048 E0.3549
G1 X73.877 Y84.216 E0.3672
G1 X74.325 Y84.294 E0.3795
G1 X74.676 Y84.294 E0.3889
; feature gap fill
; tool H0.120 W0.400
G1 X84.123 Y87.517 F4800
G92 E0.0000
G1 X84.291 Y87.685 E0.0043 F1200
G1 X84.291 Y88.250 E0.0144
G1 X83.711 Y87.670 E0.0292
G1 X83.711 Y88.236 E0.0393
G1 X84.291 Y88.816 E0.0540
G1 X84.291 Y89.382 E0.0642
G1 X83.711 Y88.802 E0.0789
G1 X83.711 Y89.367 E0.0891
G1 X84.291 Y89.947 E0.1038
G1 X84.291 Y90.513 E0.1140
G1 X83.711 Y89.933 E0.1287
G1 X83.711 Y90.499 E0.1389
G1 X84.291 Y91.079 E0.1536
G1 X84.291 Y91.644 E0.1638
G1 X83.711 Y91.064 E0.1785
G1 X83.711 Y91.630 E0.1887
G1 X84.291 Y92.210 E0.2034
G1 X84.291 Y92.776 E0.2136
G1 X83.711 Y92.196 E0.2283
G1 X83.711 Y92.761 E0.2384
G1 X84.291 Y93.341 E0.2532
G1 X84.291 Y93.907 E0.2633
G1 X83.711 Y93.327 E0.2781
G1 X83.711 Y93.893 E0.2882
G1 X84.291 Y94.473 E0.3030
G1 X84.291 Y95.039 E0.3131
G1 X83.711 Y94.459 E0.3279
G1 X83.711 Y95.024 E0.3380
G1 X84.291 Y95.604 E0.3527
G1 X84.291 Y96.170 E0.3629
G1 X83.711 Y95.590 E0.3776
G1 X83.711 Y96.156 E0.3878
G1 X84.291 Y96.736 E0.4025
G1 X84.291 Y97.301 E0.4127
G1 X83.711 Y96.721 E0.4274
G1 X83.711 Y97.287 E0.4376
