; G-Code generated by Simplify3D(R) Version 4.1.2
; Jul 4, 2021 at 11:42:08 AM
; Settings Summary
;   processName,Process1
;   applyToModels,Case lid
;   profileName,Creality Ender 3 (modified)
;   profileVersion,2018-07-11 08:00:00
;   baseProfile,
;   printMaterial,PLA
;   printQuality,High
;   printExtruders,
;   extruderName,Primary Extruder
;   extruderToolheadNumber,0
;   extruderDiameter,0.4
;   extruderAutoWidth,0
;   extruderWidth,0.4
;   extrusionMultiplier,0.9
;   extruderUseRetract,1
;   extruderRetractionDistance,4
;   extruderExtraRestartDistance,0
;   extruderRetractionZLift,0
;   extruderRetractionSpeed,2400
;   extruderUseCoasting,0
;   extruderCoastingDistance,0.2
;   extruderUseWipe,0
;   extruderWipeDistance,5
;   primaryExtruder,0
;   layerHeight,0.1
;   topSolidLayers,4
;   bottomSolidLayers,4
;   perimeterOutlines,2
;   printPerimetersInsideOut,1
;   startPointOption,2
;   startPointOriginX,0
;   startPointOriginY,0
;   sequentialIslands,0
;   spiralVaseMode,0
;   firstLayerHeightPercentage,120
;   firstLayerWidthPercentage,150
;   firstLayerUnderspeed,0.5
;   useRaft,0
;   raftExtruder,0
;   raftTopLayers,3
;   raftBaseLayers,2
;   raftOffset,3
;   raftSeparationDistance,0.14
;   raftTopInfill,100
;   aboveRaftSpeedMultiplier,0.3
;   useSkirt,0
;   skirtExtruder,0
;   skirtLayers,2
;   skirtOutlines,2
;   skirtOffset,4
;   usePrimePillar,0
;   primePillarExtruder,999
;   primePillarWidth,12
;   primePillarLocation,7
;   primePillarSpeedMultiplier,1
;   useOozeShield,0
;   oozeShieldExtruder,999
;   oozeShieldOffset,2
;   oozeShieldOutlines,1
;   oozeShieldSidewallShape,1
;   oozeShieldSidewallAngle,30
;   oozeShieldSpeedMultiplier,1
;   infillExtruder,0
;   internalInfillPattern,Rectilinear
;   externalInfillPattern,Rectilinear
;   infillPercentage,30
;   outlineOverlapPercentage,15
;   infillExtrusionWidthPercentage,100
;   minInfillLength,5
;   infillLayerInterval,1
;   internalInfillAngles,45,-45
;   overlapInternalInfillAngles,0
;   externalInfillAngles,45,-45
;   generateSupport,1
;   supportExtruder,0
;   supportInfillPercentage,40
;   supportExtraInflation,0
;   supportBaseLayers,0
;   denseSupportExtruder,0
;   denseSupportLayers,0
;   denseSupportInfillPercentage,70
;   supportLayerInterval,1
;   supportHorizontalPartOffset,0.3
;   supportUpperSeparationLayers,1
;   supportLowerSeparationLayers,1
;   supportType,0
;   supportGridSpacing,4
;   maxOverhangAngle,45
;   supportAngles,0,90
;   temperatureName,Primary Extruder,Heated Bed
;   temperatureNumber,0,0
;   temperatureSetpointCount,1,1
;   temperatureSetpointLayers,1,1
;   temperatureSetpointTemperatures,200,60
;   temperatureStabilizeAtStartup,1,1
;   temperatureHeatedBed,0,1
;   fanLayers,1,2
;   fanSpeeds,0,100
;   blipFanToFullPower,0
;   adjustSpeedForCooling,1
;   minSpeedLayerTime,15
;   minCoolingSpeedSlowdown,20
;   increaseFanForCooling,0
;   minFanLayerTime,45
;   maxCoolingFanSpeed,100
;   increaseFanForBridging,0
;   bridgingFanSpeed,100
;   use5D,1
;   relativeEdistances,0
;   allowEaxisZeroing,1
;   independentExtruderAxes,0
;   includeM10123,0
;   stickySupport,1
;   applyToolheadOffsets,0
;   gcodeXoffset,0
;   gcodeYoffset,0
;   gcodeZoffset,0
;   overrideMachineDefinition,1
;   machineTypeOverride,0
;   strokeXoverride,220
;   strokeYoverride,220
;   strokeZoverride,250
;   originOffsetXoverride,-5
;   originOffsetYoverride,-5
;   originOffsetZoverride,0
;   homeXdirOverride,-1
;   homeYdirOverride,-1
;   homeZdirOverride,-1
;   flipXoverride,1
;   flipYoverride,-1
;   flipZoverride,1
;   toolheadOffsets,0,0|0,0|0,0|0,0|0,0|0,0
;   overrideFirmwareConfiguration,1
;   firmwareTypeOverride,RepRap (Marlin/Repetier/Sprinter)
;   GPXconfigOverride,r2
;   baudRateOverride,115200
;   overridePrinterModels,1
;   printerModelsOverride
;   startingGcode,G28 ; home all axes,G1 X5 Y10 Z0.2 F3000 ; get ready to prime,G92 E0 ; reset extrusion distance,G1 X160 E15 F600 ; prime nozzle,G1 X180 F5000 ; quick wipe
;   layerChangeGcode,
;   retractionGcode,
;   toolChangeGcode,
;   endingGcode,G28 X0 ; home X axis,M106 S0 ; turn off cooling fan,M104 S0 ; turn off extruder,M140 S0 ; turn off bed,M84 ; disable motors
;   exportFileFormat,gcode
;   celebration,0
;   celebrationSong,Random Song
;   postProcessing,
;   defaultSpeed,2400
;   outlineUnderspeed,0.5
;   solidInfillUnderspeed,0.8
;   supportUnderspeed,0.8
;   rapidXYspeed,4800
;   rapidZspeed,1000
;   minBridgingArea,50
;   bridgingExtraInflation,0
;   bridgingExtrusionMultiplier,1
;   bridgingSpeedMultiplier,1
;   useFixedBridgingAngle,0
;   fixedBridgingAngle,0
;   applyBridgingToPerimeters,0
;   filamentDiameters,1.75|1.75|1.75|1.75|1.75|1.75
;   filamentPricesPerKg,46|46|46|46|46|46
;   filamentDensities,1.25|1.25|1.25|1.25|1.25|1.25
;   useMinPrintHeight,0
;   minPrintHeight,0
;   useMaxPrintHeight,0
;   maxPrintHeight,0
;   useDiaphragm,0
;   diaphragmLayerInterval,20
;   robustSlicing,1
;   mergeAllIntoSolid,0
;   onlyRetractWhenCrossingOutline,1
;   retractBetweenLayers,1
;   useRetractionMinTravel,1
;   retractionMinTravel,7
;   retractWhileWiping,0
;   onlyWipeOutlines,1
;   avoidCrossingOutline,0
;   maxMovementDetourFactor,3
;   toolChangeRetractionDistance,12
;   toolChangeExtraRestartDistance,-0.5
;   toolChangeRetractionSpeed,600
;   externalThinWallType,0
;   internalThinWallType,2
;   thinWallAllowedOverlapPercentage,10
;   singleExtrusionMinLength,1
;   singleExtrusionMinPrintingWidthPercentage,50
;   singleExtrusionMaxPrintingWidthPercentage,200
;   singleExtrusionEndpointExtension,0.2
;   horizontalSizeCompensation,0
G90
M82
M106 S0
M140 S60
M190 S60
M104 S200 T0
M109 S200 T0
G28 ; home all axes
G1 X5 Y10 Z0.2 F3000 ; get ready to prime
G92 E0 ; reset extrusion distance
G1 X160 E15 F600 ; prime nozzle
G1 X180 F5000 ; quick wipe
; process Process1
; layer 1, Z = 0.120
T0
G92 E0.0000
G1 E-4.0000 F2400
; feature inner perimeter
; tool H0.120 W0.600
G1 Z0.120 F1000
G1 X85.567 Y70.567 F4800
G1 E0.0000 F2400
G92 E0.0000
G1 X144.430 Y70.567 E1.5858 F900
G1 X144.424 Y73.100 E1.6540
G1 X135.100 Y73.100 E1.9053
G1 X135.100 Y132.900 E3.5163
G1 X144.423 Y132.900 E3.7675
G1 X144.432 Y159.433 E4.4823
G1 X85.567 Y159.433 E6.0681
G1 X85.567 Y70.567 E8.4622
; feature outer perimeter
G1 X84.967 Y69.967 F4800
G92 E0.0000
G1 X145.032 Y69.967 E1.6182 F600
G1 X145.023 Y73.700 E1.7187
G1 X135.700 Y73.700 E1.9699
G1 X135.700 Y132.300 E3.5486
G1 X145.022 Y132.300 E3.7998
G1 X145.032 Y160.033 E4.5469
G1 X84.967 Y160.033 E6.1651
G1 X84.967 Y69.967 E8.5915
; feature inner perimeter
G1 X96.633 Y91.019 F4800
G92 E0.0000
G1 X96.199 Y91.404 E0.0156 F900
G1 X95.869 Y91.882 E0.0313
G1 X95.663 Y92.424 E0.0469
G1 X95.593 Y93.000 E0.0625
G1 X95.663 Y93.576 E0.0781
G1 X95.869 Y94.118 E0.0938
G1 X96.199 Y94.596 E0.1094
G1 X96.633 Y94.981 E0.1250
G1 X97.147 Y95.250 E0.1407
G1 X97.710 Y95.389 E0.1563
G1 X98.290 Y95.389 E0.1719
G1 X98.853 Y95.250 E0.1876
G1 X99.367 Y94.981 E0.2032
G1 X99.801 Y94.596 E0.2188
G1 X100.131 Y94.118 E0.2345
G1 X100.338 Y93.573 E0.2502
G1 X100.405 Y92.986 E0.2661
G1 X100.337 Y92.424 E0.2813
G1 X100.131 Y91.882 E0.2970
G1 X99.801 Y91.404 E0.3126
G1 X99.367 Y91.019 E0.3282
G1 X98.853 Y90.750 E0.3439
G1 X98.290 Y90.611 E0.3595
G1 X97.710 Y90.611 E0.3751
G1 X97.147 Y90.750 E0.3907
G1 X96.633 Y91.019 E0.4064
; feature outer perimeter
G1 X96.976 Y91.517 F4800
G92 E0.0000
G1 X96.651 Y91.805 E0.0117 F600
G1 X96.404 Y92.162 E0.0234
G1 X96.250 Y92.569 E0.0351
G1 X96.198 Y93.000 E0.0468
G1 X96.250 Y93.431 E0.0585
G1 X96.404 Y93.838 E0.0702
G1 X96.651 Y94.195 E0.0819
G1 X96.976 Y94.483 E0.0936
G1 X97.361 Y94.685 E0.1053
G1 X97.783 Y94.789 E0.1170
G1 X98.217 Y94.789 E0.1288
G1 X98.639 Y94.685 E0.1405
G1 X99.024 Y94.483 E0.1522
G1 X99.349 Y94.195 E0.1639
G1 X99.596 Y93.838 E0.1756
G1 X99.750 Y93.430 E0.1873
G1 X99.801 Y92.988 E0.1993
G1 X99.750 Y92.569 E0.2107
G1 X99.596 Y92.162 E0.2224
G1 X99.349 Y91.805 E0.2341
G1 X99.024 Y91.517 E0.2458
G1 X98.639 Y91.315 E0.2575
G1 X98.217 Y91.211 E0.2692
G1 X97.783 Y91.211 E0.2809
G1 X97.361 Y91.315 E0.2926
G1 X96.976 Y91.517 E0.3043
; feature inner perimeter
G1 X100.624 Y95.178 F4800
G92 E0.0000
G1 X99.959 Y95.859 E0.0256 F900
G1 X99.020 Y97.012 E0.0657
G1 X98.451 Y97.858 E0.0932
G1 X97.769 Y99.103 E0.1314
G1 X97.337 Y100.099 E0.1607
G1 X96.912 Y101.384 E0.1971
G1 X96.652 Y102.507 E0.2282
G1 X96.476 Y103.782 E0.2628
G1 X96.421 Y105.000 E0.2957
G1 X96.476 Y106.218 E0.3286
G1 X96.652 Y107.493 E0.3632
G1 X96.912 Y108.616 E0.3943
G1 X97.337 Y109.901 E0.4307
G1 X97.769 Y110.897 E0.4600
G1 X98.452 Y112.142 E0.4982
G1 X99.020 Y112.988 E0.5257
G1 X99.959 Y114.141 E0.5658
G1 X100.624 Y114.822 E0.5914
G1 X101.808 Y115.829 E0.6333
G1 X102.531 Y116.339 E0.6571
G1 X103.935 Y117.149 E0.7008
G1 X104.677 Y117.492 E0.7228
G1 X106.268 Y118.055 E0.7683
G1 X106.996 Y118.242 E0.7885
G1 X108.728 Y118.519 E0.8358
G1 X109.411 Y118.566 E0.8542
G1 X111.127 Y118.525 E0.9005
G1 X111.543 Y118.703 E0.9127
G1 X112.272 Y118.567 E0.9326
G1 X112.539 Y118.446 E0.9405
G1 X113.056 Y118.255 E0.9554
G1 X113.566 Y118.104 E0.9697
G1 X113.951 Y118.215 E0.9805
G1 X114.667 Y117.938 E1.0012
G1 X114.912 Y117.771 E1.0092
G1 X115.408 Y117.479 E1.0247
G1 X115.865 Y117.248 E1.0385
G1 X116.229 Y117.312 E1.0484
G1 X116.910 Y116.890 E1.0700
G1 X117.126 Y116.680 E1.0781
G1 X117.581 Y116.289 E1.0943
G1 X117.965 Y115.999 E1.1073
G1 X118.305 Y116.026 E1.1164
G1 X118.929 Y115.457 E1.1392
G1 X119.107 Y115.209 E1.1474
G1 X119.501 Y114.725 E1.1643
G1 X119.814 Y114.385 E1.1767
G1 X120.077 Y114.373 E1.1838
G1 X120.748 Y113.485 E1.2138
G1 X121.106 Y112.838 E1.2337
G1 X121.321 Y112.499 E1.2445
G1 X121.566 Y112.478 E1.2511
G1 X122.097 Y111.411 E1.2832
G1 X122.341 Y110.692 E1.3037
G1 X122.510 Y110.278 E1.3157
G1 X122.640 Y110.227 E1.3195
G1 X123.155 Y108.414 E1.3702
G1 X123.228 Y108.067 E1.3798
G1 X123.362 Y108.034 E1.3835
G1 X123.554 Y105.968 E1.4394
G1 X123.579 Y104.971 E1.4663
G1 X123.363 Y102.575 E1.5311
G1 X122.715 Y100.228 E1.5967
G1 X121.659 Y98.034 E1.6623
G1 X120.228 Y96.064 E1.7279
G1 X118.468 Y94.382 E1.7935
G1 X116.436 Y93.040 E1.8591
G1 X114.197 Y92.083 E1.9247
G1 X111.823 Y91.542 E1.9903
G1 X109.420 Y91.434 E2.0551
G1 X108.728 Y91.481 E2.0738
G1 X106.996 Y91.758 E2.1210
G1 X106.268 Y91.945 E2.1413
G1 X104.678 Y92.508 E2.1867
G1 X103.935 Y92.851 E2.2088
G1 X102.531 Y93.661 E2.2524
G1 X101.808 Y94.171 E2.2763
G1 X100.624 Y95.178 E2.3182
; feature outer perimeter
G1 X101.034 Y95.617 F4800
G92 E0.0000
G1 X100.407 Y96.259 E0.0242 F600
G1 X99.502 Y97.370 E0.0628
G1 X98.965 Y98.170 E0.0887
G1 X98.308 Y99.367 E0.1255
G1 X97.898 Y100.313 E0.1533
G1 X97.490 Y101.546 E0.1883
G1 X97.243 Y102.616 E0.2179
G1 X97.074 Y103.836 E0.2511
G1 X97.022 Y105.000 E0.2824
G1 X97.074 Y106.164 E0.3138
G1 X97.243 Y107.384 E0.3470
G1 X97.490 Y108.454 E0.3766
G1 X97.898 Y109.687 E0.4116
G1 X98.308 Y110.633 E0.4394
G1 X98.965 Y111.830 E0.4761
G1 X99.502 Y112.630 E0.5021
G1 X100.407 Y113.741 E0.5407
G1 X101.034 Y114.383 E0.5649
G1 X102.176 Y115.354 E0.6053
G1 X102.854 Y115.833 E0.6276
G1 X104.211 Y116.615 E0.6698
G1 X104.904 Y116.936 E0.6904
G1 X106.443 Y117.481 E0.7344
G1 X107.118 Y117.654 E0.7532
G1 X108.796 Y117.922 E0.7990
G1 X109.424 Y117.965 E0.8159
G1 X111.150 Y117.924 E0.8624
G1 X111.307 Y117.949 E0.8667
G1 X111.612 Y118.080 E0.8756
G1 X112.090 Y117.990 E0.8888
G1 X112.311 Y117.891 E0.8953
G1 X112.866 Y117.685 E0.9112
G1 X113.511 Y117.494 E0.9294
G1 X113.623 Y117.495 E0.9324
G1 X113.924 Y117.583 E0.9408
G1 X114.385 Y117.404 E0.9541
G1 X114.590 Y117.264 E0.9608
G1 X115.121 Y116.952 E0.9774
G1 X115.740 Y116.640 E0.9961
G1 X115.814 Y116.630 E0.9981
G1 X116.107 Y116.682 E1.0061
G1 X116.538 Y116.415 E1.0198
G1 X116.720 Y116.237 E1.0266
G1 X117.204 Y115.821 E1.0438
G1 X117.772 Y115.393 E1.0630
G1 X117.808 Y115.384 E1.0639
G1 X118.093 Y115.407 E1.0717
G1 X118.478 Y115.056 E1.0857
G1 X118.630 Y114.844 E1.0927
G1 X119.048 Y114.332 E1.1105
G1 X119.543 Y113.798 E1.1302
G1 X119.768 Y113.787 E1.1362
G1 X120.244 Y113.157 E1.1575
G1 X120.590 Y112.532 E1.1767
G1 X120.973 Y111.928 E1.1960
G1 X121.178 Y111.910 E1.2016
G1 X121.542 Y111.179 E1.2236
G1 X121.779 Y110.483 E1.2434
G1 X122.051 Y109.812 E1.2629
G1 X122.144 Y109.776 E1.2656
G1 X122.572 Y108.271 E1.3077
G1 X122.717 Y107.575 E1.3269
G1 X122.804 Y107.554 E1.3293
G1 X122.954 Y105.932 E1.3732
G1 X122.978 Y104.990 E1.3985
G1 X122.770 Y102.683 E1.4610
G1 X122.151 Y100.440 E1.5237
G1 X121.142 Y98.343 E1.5863
G1 X119.774 Y96.461 E1.6490
G1 X118.092 Y94.853 E1.7117
G1 X116.150 Y93.571 E1.7744
G1 X114.011 Y92.656 E1.8371
G1 X111.742 Y92.139 E1.8998
G1 X109.428 Y92.035 E1.9622
G1 X108.796 Y92.078 E1.9792
G1 X107.118 Y92.346 E2.0250
G1 X106.443 Y92.519 E2.0438
G1 X104.904 Y93.064 E2.0878
G1 X104.211 Y93.385 E2.1084
G1 X102.854 Y94.167 E2.1505
G1 X102.176 Y94.646 E2.1729
G1 X101.034 Y95.617 E2.2133
G92 E0.0000
G1 E-4.0000 F2400
; feature inner perimeter
G1 X119.663 Y93.576 F4800
G1 E0.0000 F2400
G92 E0.0000
G1 X119.869 Y94.118 E0.0156 F900
G1 X120.199 Y94.596 E0.0313
G1 X120.633 Y94.981 E0.0469
G1 X121.147 Y95.250 E0.0625
G1 X121.710 Y95.389 E0.0782
G1 X122.290 Y95.389 E0.0938
G1 X122.853 Y95.250 E0.1094
G1 X123.367 Y94.981 E0.1250
G1 X123.801 Y94.596 E0.1407
G1 X124.131 Y94.118 E0.1563
G1 X124.338 Y93.573 E0.1720
G1 X124.405 Y92.986 E0.1879
G1 X124.337 Y92.424 E0.2032
G1 X124.131 Y91.882 E0.2188
G1 X123.801 Y91.404 E0.2344
G1 X123.367 Y91.019 E0.2501
G1 X122.853 Y90.750 E0.2657
G1 X122.290 Y90.611 E0.2813
G1 X121.710 Y90.611 E0.2970
G1 X121.147 Y90.750 E0.3126
G1 X120.633 Y91.019 E0.3282
G1 X120.199 Y91.404 E0.3439
G1 X119.869 Y91.882 E0.3595
G1 X119.663 Y92.424 E0.3751
G1 X119.593 Y93.000 E0.3907
G1 X119.663 Y93.576 E0.4064
; feature outer perimeter
G1 X120.250 Y93.431 F4800
G92 E0.0000
G1 X120.404 Y93.838 E0.0117 F600
G1 X120.651 Y94.195 E0.0234
G1 X120.976 Y94.483 E0.0351
G1 X121.361 Y94.685 E0.0468
G1 X121.783 Y94.789 E0.0585
G1 X122.217 Y94.789 E0.0702
G1 X122.639 Y94.685 E0.0819
G1 X123.024 Y94.483 E0.0936
G1 X123.349 Y94.195 E0.1053
G1 X123.596 Y93.838 E0.1170
G1 X123.750 Y93.430 E0.1288
G1 X123.801 Y92.988 E0.1408
G1 X123.750 Y92.569 E0.1522
G1 X123.596 Y92.162 E0.1639
G1 X123.349 Y91.805 E0.1756
G1 X123.024 Y91.517 E0.1873
G1 X122.639 Y91.315 E0.1990
G1 X122.217 Y91.211 E0.2107
G1 X121.783 Y91.211 E0.2224
G1 X121.361 Y91.315 E0.2341
G1 X120.976 Y91.517 E0.2458
G1 X120.651 Y91.805 E0.2575
G1 X120.404 Y92.162 E0.2692
G1 X120.250 Y92.569 E0.2809
G1 X120.198 Y93.000 E0.2926
G1 X120.250 Y93.431 E0.3043
G92 E0.0000
G1 E-4.0000 F2400
; feature inner perimeter
G1 X121.710 Y114.611 F4800
G1 E0.0000 F2400
G92 E0.0000
G1 X121.147 Y114.750 E0.0156 F900
G1 X120.633 Y115.019 E0.0313
G1 X120.199 Y115.404 E0.0469
G1 X119.869 Y115.882 E0.0625
G1 X119.663 Y116.424 E0.0782
G1 X119.593 Y117.000 E0.0938
G1 X119.663 Y117.576 E0.1094
G1 X119.869 Y118.118 E0.1250
G1 X120.199 Y118.596 E0.1407
G1 X120.633 Y118.981 E0.1563
G1 X121.147 Y119.250 E0.1719
G1 X121.710 Y119.389 E0.1876
G1 X122.290 Y119.389 E0.2032
G1 X122.853 Y119.250 E0.2188
G1 X123.367 Y118.981 E0.2345
G1 X123.801 Y118.596 E0.2501
G1 X124.131 Y118.118 E0.2657
G1 X124.338 Y117.573 E0.2814
G1 X124.405 Y116.986 E0.2973
G1 X124.337 Y116.424 E0.3126
G1 X124.131 Y115.882 E0.3282
G1 X123.801 Y115.404 E0.3439
G1 X123.367 Y115.019 E0.3595
G1 X122.853 Y114.750 E0.3751
G1 X122.290 Y114.611 E0.3907
G1 X121.710 Y114.611 E0.4064
; feature outer perimeter
G1 X121.783 Y115.211 F4800
G92 E0.0000
G1 X121.361 Y115.315 E0.0117 F600
G1 X120.976 Y115.517 E0.0234
G1 X120.651 Y115.805 E0.0351
