; G-Code generated by Simplify3D(R) Version 4.1.2
; Jun 27, 2021 at 4:48:25 PM
; Settings Summary
;   processName,Process1
;   applyToModels,SSD Lid
;   profileName,Creality Ender 3 (modified)
;   profileVersion,2018-07-11 08:00:00
;   baseProfile,
;   printMaterial,PLA
;   printQuality,High
;   printExtruders,
;   extruderName,Primary Extruder
;   extruderToolheadNumber,0
;   extruderDiameter,0.4
;   extruderAutoWidth,0
;   extruderWidth,0.4
;   extrusionMultiplier,0.9
;   extruderUseRetract,1
;   extruderRetractionDistance,4
;   extruderExtraRestartDistance,0
;   extruderRetractionZLift,0
;   extruderRetractionSpeed,2400
;   extruderUseCoasting,0
;   extruderCoastingDistance,0.2
;   extruderUseWipe,0
;   extruderWipeDistance,5
;   primaryExtruder,0
;   layerHeight,0.1
;   topSolidLayers,4
;   bottomSolidLayers,4
;   perimeterOutlines,2
;   printPerimetersInsideOut,1
;   startPointOption,2
;   startPointOriginX,0
;   startPointOriginY,0
;   sequentialIslands,0
;   spiralVaseMode,0
;   firstLayerHeightPercentage,120
;   firstLayerWidthPercentage,150
;   firstLayerUnderspeed,0.5
;   useRaft,0
;   raftExtruder,0
;   raftTopLayers,3
;   raftBaseLayers,2
;   raftOffset,3
;   raftSeparationDistance,0.14
;   raftTopInfill,100
;   aboveRaftSpeedMultiplier,0.3
;   useSkirt,0
;   skirtExtruder,0
;   skirtLayers,2
;   skirtOutlines,2
;   skirtOffset,4
;   usePrimePillar,0
;   primePillarExtruder,999
;   primePillarWidth,12
;   primePillarLocation,7
;   primePillarSpeedMultiplier,1
;   useOozeShield,0
;   oozeShieldExtruder,999
;   oozeShieldOffset,2
;   oozeShieldOutlines,1
;   oozeShieldSidewallShape,1
;   oozeShieldSidewallAngle,30
;   oozeShieldSpeedMultiplier,1
;   infillExtruder,0
;   internalInfillPattern,Rectilinear
;   externalInfillPattern,Rectilinear
;   infillPercentage,30
;   outlineOverlapPercentage,15
;   infillExtrusionWidthPercentage,100
;   minInfillLength,5
;   infillLayerInterval,1
;   internalInfillAngles,45,-45
;   overlapInternalInfillAngles,0
;   externalInfillAngles,45,-45
;   generateSupport,0
;   supportExtruder,0
;   supportInfillPercentage,40
;   supportExtraInflation,0
;   supportBaseLayers,0
;   denseSupportExtruder,0
;   denseSupportLayers,0
;   denseSupportInfillPercentage,70
;   supportLayerInterval,1
;   supportHorizontalPartOffset,0.3
;   supportUpperSeparationLayers,1
;   supportLowerSeparationLayers,1
;   supportType,0
;   supportGridSpacing,4
;   maxOverhangAngle,45
;   supportAngles,0
;   temperatureName,Primary Extruder,Heated Bed
;   temperatureNumber,0,0
;   temperatureSetpointCount,1,1
;   temperatureSetpointLayers,1,1
;   temperatureSetpointTemperatures,205,60
;   temperatureStabilizeAtStartup,1,1
;   temperatureHeatedBed,0,1
;   fanLayers,1,2
;   fanSpeeds,0,100
;   blipFanToFullPower,0
;   adjustSpeedForCooling,1
;   minSpeedLayerTime,15
;   minCoolingSpeedSlowdown,20
;   increaseFanForCooling,0
;   minFanLayerTime,45
;   maxCoolingFanSpeed,100
;   increaseFanForBridging,0
;   bridgingFanSpeed,100
;   use5D,1
;   relativeEdistances,0
;   allowEaxisZeroing,1
;   independentExtruderAxes,0
;   includeM10123,0
;   stickySupport,1
;   applyToolheadOffsets,0
;   gcodeXoffset,0
;   gcodeYoffset,0
;   gcodeZoffset,0
;   overrideMachineDefinition,1
;   machineTypeOverride,0
;   strokeXoverride,220
;   strokeYoverride,220
;   strokeZoverride,250
;   originOffsetXoverride,-5
;   originOffsetYoverride,-5
;   originOffsetZoverride,0
;   homeXdirOverride,-1
;   homeYdirOverride,-1
;   homeZdirOverride,-1
;   flipXoverride,1
;   flipYoverride,-1
;   flipZoverride,1
;   toolheadOffsets,0,0|0,0|0,0|0,0|0,0|0,0
;   overrideFirmwareConfiguration,1
;   firmwareTypeOverride,RepRap (Marlin/Repetier/Sprinter)
;   GPXconfigOverride,r2
;   baudRateOverride,115200
;   overridePrinterModels,1
;   printerModelsOverride
;   startingGcode,G28 ; home all axes,G1 X5 Y10 Z0.2 F3000 ; get ready to prime,G92 E0 ; reset extrusion distance,G1 X160 E15 F600 ; prime nozzle,G1 X180 F5000 ; quick wipe
;   layerChangeGcode,
;   retractionGcode,
;   toolChangeGcode,
;   endingGcode,G28 X0 ; home X axis,M106 S0 ; turn off cooling fan,M104 S0 ; turn off extruder,M140 S0 ; turn off bed,M84 ; disable motors
;   exportFileFormat,gcode
;   celebration,0
;   celebrationSong,Random Song
;   postProcessing,
;   defaultSpeed,2400
;   outlineUnderspeed,0.5
;   solidInfillUnderspeed,0.8
;   supportUnderspeed,0.8
;   rapidXYspeed,4800
;   rapidZspeed,1000
;   minBridgingArea,50
;   bridgingExtraInflation,0
;   bridgingExtrusionMultiplier,1
;   bridgingSpeedMultiplier,1
;   useFixedBridgingAngle,0
;   fixedBridgingAngle,0
;   applyBridgingToPerimeters,0
;   filamentDiameters,1.75|1.75|1.75|1.75|1.75|1.75
;   filamentPricesPerKg,46|46|46|46|46|46
;   filamentDensities,1.25|1.25|1.25|1.25|1.25|1.25
;   useMinPrintHeight,0
;   minPrintHeight,0
;   useMaxPrintHeight,0
;   maxPrintHeight,0
;   useDiaphragm,0
;   diaphragmLayerInterval,20
;   robustSlicing,1
;   mergeAllIntoSolid,0
;   onlyRetractWhenCrossingOutline,1
;   retractBetweenLayers,1
;   useRetractionMinTravel,1
;   retractionMinTravel,7
;   retractWhileWiping,0
;   onlyWipeOutlines,1
;   avoidCrossingOutline,0
;   maxMovementDetourFactor,3
;   toolChangeRetractionDistance,12
;   toolChangeExtraRestartDistance,-0.5
;   toolChangeRetractionSpeed,600
;   externalThinWallType,0
;   internalThinWallType,2
;   thinWallAllowedOverlapPercentage,10
;   singleExtrusionMinLength,1
;   singleExtrusionMinPrintingWidthPercentage,50
;   singleExtrusionMaxPrintingWidthPercentage,200
;   singleExtrusionEndpointExtension,0.2
;   horizontalSizeCompensation,0
G90
M82
M106 S0
M140 S60
M190 S60
M104 S205 T0
M109 S205 T0
G28 ; home all axes
G1 X5 Y10 Z0.2 F3000 ; get ready to prime
G92 E0 ; reset extrusion distance
G1 X160 E15 F600 ; prime nozzle
G1 X180 F5000 ; quick wipe
; process Process1
; layer 1, Z = 0.120
T0
G92 E0.0000
G1 E-4.0000 F2400
; feature inner perimeter
; tool H0.120 W0.600
G1 Z0.120 F1000
G1 X46.900 Y75.400 F4800
G1 E0.0000 F2400
G92 E0.0000
G1 X65.856 Y75.400 E0.5107 F900
G1 X65.926 Y73.992 E0.5487
G1 X66.002 Y73.490 E0.5624
G1 X66.128 Y72.997 E0.5760
G1 X66.302 Y72.519 E0.5898
G1 X66.522 Y72.061 E0.6034
G1 X66.787 Y71.628 E0.6171
G1 X67.094 Y71.222 E0.6308
G1 X67.440 Y70.850 E0.6445
G1 X67.821 Y70.514 E0.6582
G1 X68.234 Y70.217 E0.6719
G1 X68.674 Y69.963 E0.6856
G1 X69.137 Y69.754 E0.6993
G1 X69.619 Y69.592 E0.7130
G1 X70.115 Y69.479 E0.7267
G1 X70.619 Y69.415 E0.7404
G1 X71.127 Y69.403 E0.7541
G1 X71.634 Y69.441 E0.7678
G1 X72.135 Y69.529 E0.7815
G1 X72.624 Y69.667 E0.7952
G1 X73.097 Y69.852 E0.8089
G1 X73.549 Y70.084 E0.8226
G1 X73.976 Y70.360 E0.8362
G1 X74.374 Y70.677 E0.8499
G1 X74.738 Y71.032 E0.8636
G1 X75.064 Y71.421 E0.8773
G1 X75.351 Y71.841 E0.8910
G1 X75.594 Y72.288 E0.9047
G1 X75.791 Y72.756 E0.9184
G1 X75.945 Y73.253 E0.9324
G1 X75.996 Y73.479 E0.9387
G1 X76.074 Y73.992 E0.9527
G1 X76.144 Y75.400 E0.9906
G1 X153.856 Y75.400 E3.0843
G1 X153.926 Y73.992 E3.1222
G1 X154.002 Y73.490 E3.1359
G1 X154.128 Y72.997 E3.1496
G1 X154.302 Y72.519 E3.1633
G1 X154.522 Y72.061 E3.1770
G1 X154.787 Y71.628 E3.1907
G1 X155.094 Y71.222 E3.2044
G1 X155.440 Y70.850 E3.2181
G1 X155.821 Y70.514 E3.2318
G1 X156.234 Y70.217 E3.2455
G1 X156.674 Y69.963 E3.2592
G1 X157.137 Y69.754 E3.2729
G1 X157.619 Y69.592 E3.2866
G1 X158.115 Y69.479 E3.3003
G1 X158.619 Y69.415 E3.3139
G1 X159.127 Y69.403 E3.3276
G1 X159.634 Y69.441 E3.3413
G1 X160.135 Y69.529 E3.3550
G1 X160.624 Y69.667 E3.3687
G1 X161.097 Y69.852 E3.3824
G1 X161.549 Y70.084 E3.3961
G1 X161.976 Y70.360 E3.4098
G1 X162.374 Y70.677 E3.4235
G1 X162.738 Y71.032 E3.4372
G1 X163.064 Y71.421 E3.4509
G1 X163.351 Y71.841 E3.4646
G1 X163.594 Y72.288 E3.4783
G1 X163.796 Y72.766 E3.4923
G1 X163.870 Y72.986 E3.4985
G1 X163.998 Y73.490 E3.5125
G1 X164.074 Y73.992 E3.5262
G1 X164.144 Y75.400 E3.5642
G1 X183.100 Y75.400 E4.0749
G1 X183.100 Y154.600 E6.2086
G1 X164.144 Y154.600 E6.7193
G1 X164.074 Y156.008 E6.7572
G1 X163.998 Y156.510 E6.7709
G1 X163.872 Y157.003 E6.7846
G1 X163.698 Y157.481 E6.7983
G1 X163.478 Y157.939 E6.8120
G1 X163.213 Y158.372 E6.8257
G1 X162.906 Y158.778 E6.8394
G1 X162.560 Y159.150 E6.8531
G1 X162.179 Y159.486 E6.8668
G1 X161.766 Y159.783 E6.8805
G1 X161.326 Y160.037 E6.8942
G1 X160.863 Y160.246 E6.9079
G1 X160.381 Y160.408 E6.9216
G1 X159.885 Y160.521 E6.9353
G1 X159.381 Y160.585 E6.9490
G1 X158.873 Y160.597 E6.9627
G1 X158.366 Y160.559 E6.9764
G1 X157.865 Y160.471 E6.9901
G1 X157.376 Y160.333 E7.0037
G1 X156.903 Y160.148 E7.0174
G1 X156.450 Y159.916 E7.0311
G1 X156.024 Y159.640 E7.0448
G1 X155.626 Y159.323 E7.0585
G1 X155.262 Y158.968 E7.0722
G1 X154.935 Y158.579 E7.0859
G1 X154.649 Y158.159 E7.0996
G1 X154.406 Y157.712 E7.1133
G1 X154.204 Y157.234 E7.1273
G1 X154.130 Y157.014 E7.1335
G1 X154.002 Y156.510 E7.1475
G1 X153.926 Y156.008 E7.1612
G1 X153.856 Y154.600 E7.1992
G1 X76.144 Y154.600 E9.2928
G1 X76.074 Y156.008 E9.3308
G1 X75.998 Y156.510 E9.3445
G1 X75.872 Y157.003 E9.3582
G1 X75.698 Y157.481 E9.3719
G1 X75.478 Y157.939 E9.3856
G1 X75.213 Y158.372 E9.3993
G1 X74.906 Y158.778 E9.4130
G1 X74.560 Y159.150 E9.4267
G1 X74.179 Y159.486 E9.4404
G1 X73.766 Y159.783 E9.4541
G1 X73.326 Y160.037 E9.4678
G1 X72.863 Y160.246 E9.4814
G1 X72.381 Y160.408 E9.4951
G1 X71.885 Y160.521 E9.5088
G1 X71.381 Y160.585 E9.5225
G1 X70.873 Y160.597 E9.5362
G1 X70.366 Y160.559 E9.5499
G1 X69.865 Y160.471 E9.5636
G1 X69.376 Y160.333 E9.5773
G1 X68.903 Y160.148 E9.5910
G1 X68.450 Y159.916 E9.6047
G1 X68.024 Y159.640 E9.6184
G1 X67.626 Y159.323 E9.6321
G1 X67.262 Y158.968 E9.6458
G1 X66.936 Y158.579 E9.6595
G1 X66.649 Y158.159 E9.6732
G1 X66.406 Y157.712 E9.6869
G1 X66.209 Y157.244 E9.7006
G1 X66.055 Y156.747 E9.7146
G1 X66.004 Y156.521 E9.7208
G1 X65.926 Y156.008 E9.7348
G1 X65.856 Y154.600 E9.7728
G1 X46.900 Y154.600 E10.2835
G1 X46.900 Y75.400 E12.4172
; feature outer perimeter
G1 X46.300 Y74.800 F4800
G92 E0.0000
G1 X65.285 Y74.800 E0.5115 F600
G1 X65.329 Y73.932 E0.5349
G1 X65.413 Y73.371 E0.5502
G1 X65.554 Y72.820 E0.5655
G1 X65.748 Y72.286 E0.5808
G1 X65.994 Y71.774 E0.5961
G1 X66.291 Y71.289 E0.6114
G1 X66.634 Y70.836 E0.6267
G1 X67.020 Y70.420 E0.6420
G1 X67.446 Y70.044 E0.6573
G1 X67.908 Y69.712 E0.6727
G1 X68.400 Y69.428 E0.6880
G1 X68.918 Y69.194 E0.7033
G1 X69.456 Y69.013 E0.7186
G1 X70.010 Y68.887 E0.7339
G1 X70.574 Y68.816 E0.7492
G1 X71.142 Y68.802 E0.7645
G1 X71.709 Y68.845 E0.7798
G1 X72.268 Y68.943 E0.7951
G1 X72.815 Y69.097 E0.8104
G1 X73.344 Y69.305 E0.8257
G1 X73.850 Y69.564 E0.8410
G1 X74.327 Y69.872 E0.8563
G1 X74.771 Y70.227 E0.8717
G1 X75.178 Y70.623 E0.8870
G1 X75.543 Y71.058 E0.9023
G1 X75.863 Y71.528 E0.9176
G1 X76.135 Y72.027 E0.9329
G1 X76.356 Y72.551 E0.9482
G1 X76.524 Y73.097 E0.9636
G1 X76.586 Y73.367 E0.9711
G1 X76.671 Y73.932 E0.9865
G1 X76.715 Y74.800 E1.0099
G1 X153.285 Y74.800 E3.0727
G1 X153.329 Y73.932 E3.0961
G1 X153.413 Y73.371 E3.1114
G1 X153.554 Y72.820 E3.1268
G1 X153.748 Y72.286 E3.1421
G1 X153.994 Y71.774 E3.1574
G1 X154.291 Y71.289 E3.1727
G1 X154.634 Y70.836 E3.1880
G1 X155.020 Y70.420 E3.2033
G1 X155.446 Y70.044 E3.2186
G1 X155.908 Y69.712 E3.2339
G1 X156.400 Y69.428 E3.2492
G1 X156.918 Y69.194 E3.2645
G1 X157.456 Y69.013 E3.2798
G1 X158.010 Y68.887 E3.2951
G1 X158.574 Y68.816 E3.3104
G1 X159.142 Y68.802 E3.3258
G1 X159.709 Y68.845 E3.3411
G1 X160.268 Y68.943 E3.3564
G1 X160.815 Y69.097 E3.3717
G1 X161.344 Y69.305 E3.3870
G1 X161.850 Y69.564 E3.4023
G1 X162.327 Y69.872 E3.4176
G1 X162.771 Y70.227 E3.4329
G1 X163.178 Y70.623 E3.4482
G1 X163.543 Y71.059 E3.4635
G1 X163.863 Y71.528 E3.4788
G1 X164.135 Y72.027 E3.4941
G1 X164.357 Y72.554 E3.5096
G1 X164.445 Y72.816 E3.5170
G1 X164.587 Y73.371 E3.5324
G1 X164.671 Y73.932 E3.5477
G1 X164.715 Y74.800 E3.5711
G1 X183.700 Y74.800 E4.0826
G1 X183.700 Y155.200 E6.2486
G1 X164.715 Y155.200 E6.7601
G1 X164.671 Y156.068 E6.7835
G1 X164.587 Y156.629 E6.7988
G1 X164.446 Y157.180 E6.8141
G1 X164.252 Y157.714 E6.8294
G1 X164.006 Y158.226 E6.8447
G1 X163.709 Y158.711 E6.8601
G1 X163.366 Y159.164 E6.8754
G1 X162.980 Y159.580 E6.8907
G1 X162.554 Y159.956 E6.9060
G1 X162.092 Y160.288 E6.9213
G1 X161.600 Y160.572 E6.9366
G1 X161.082 Y160.806 E6.9519
G1 X160.544 Y160.987 E6.9672
G1 X159.990 Y161.113 E6.9825
G1 X159.426 Y161.184 E6.9978
G1 X158.858 Y161.198 E7.0131
G1 X158.291 Y161.155 E7.0284
G1 X157.732 Y161.057 E7.0437
G1 X157.185 Y160.903 E7.0591
G1 X156.656 Y160.695 E7.0744
G1 X156.150 Y160.436 E7.0897
G1 X155.673 Y160.128 E7.1050
G1 X155.229 Y159.773 E7.1203
G1 X154.822 Y159.377 E7.1356
G1 X154.457 Y158.941 E7.1509
G1 X154.137 Y158.472 E7.1662
G1 X153.865 Y157.973 E7.1815
G1 X153.643 Y157.446 E7.1969
G1 X153.555 Y157.184 E7.2044
G1 X153.413 Y156.629 E7.2198
G1 X153.329 Y156.068 E7.2351
G1 X153.285 Y155.200 E7.2585
G1 X76.715 Y155.200 E9.3214
G1 X76.671 Y156.068 E9.3448
G1 X76.587 Y156.629 E9.3601
G1 X76.446 Y157.180 E9.3754
G1 X76.252 Y157.714 E9.3907
G1 X76.006 Y158.226 E9.4060
G1 X75.709 Y158.711 E9.4213
G1 X75.366 Y159.164 E9.4366
G1 X74.980 Y159.580 E9.4519
G1 X74.554 Y159.956 E9.4672
G1 X74.092 Y160.288 E9.4825
G1 X73.600 Y160.572 E9.4979
G1 X73.082 Y160.806 E9.5132
G1 X72.544 Y160.987 E9.5285
G1 X71.990 Y161.113 E9.5438
G1 X71.426 Y161.184 E9.5591
G1 X70.858 Y161.198 E9.5744
G1 X70.291 Y161.155 E9.5897
G1 X69.732 Y161.057 E9.6050
G1 X69.185 Y160.903 E9.6203
G1 X68.656 Y160.695 E9.6356
G1 X68.150 Y160.436 E9.6509
G1 X67.673 Y160.128 E9.6662
G1 X67.229 Y159.773 E9.6815
G1 X66.822 Y159.377 E9.6969
G1 X66.457 Y158.941 E9.7122
G1 X66.137 Y158.472 E9.7275
G1 X65.865 Y157.973 E9.7428
G1 X65.644 Y157.449 E9.7581
G1 X65.476 Y156.903 E9.7735
G1 X65.414 Y156.633 E9.7810
G1 X65.329 Y156.068 E9.7964
G1 X65.285 Y155.200 E9.8198
G1 X46.300 Y155.200 E10.3312
G1 X46.300 Y74.800 E12.4973
; feature inner perimeter
G1 X63.784 Y83.066 F4800
G92 E0.0000
G1 X63.647 Y83.513 E0.0126 F900
G1 X63.599 Y83.891 E0.0229
G1 X63.622 Y84.358 E0.0355
G1 X63.740 Y84.822 E0.0484
G1 X63.948 Y85.254 E0.0613
G1 X64.237 Y85.635 E0.0742
G1 X64.596 Y85.952 E0.0871
G1 X65.011 Y86.192 E0.1000
G1 X65.465 Y86.344 E0.1129
G1 X65.940 Y86.404 E0.1258
G1 X66.418 Y86.368 E0.1387
G1 X66.878 Y86.238 E0.1516
G1 X67.305 Y86.020 E0.1645
G1 X67.688 Y85.714 E0.1777
G1 X68.039 Y85.275 E0.1928
G1 X68.219 Y84.923 E0.2035
G1 X68.357 Y84.476 E0.2161
G1 X68.404 Y84.000 E0.2290
G1 X68.357 Y83.524 E0.2419
G1 X68.216 Y83.066 E0.2548
G1 X67.987 Y82.645 E0.2677
G1 X67.679 Y82.279 E0.2806
G1 X67.305 Y81.980 E0.2935
G1 X66.878 Y81.762 E0.3064
G1 X66.418 Y81.632 E0.3193
G1 X65.940 Y81.596 E0.3322
G1 X65.465 Y81.656 E0.3451
G1 X65.011 Y81.808 E0.3580
G1 X64.596 Y82.048 E0.3709
G1 X64.246 Y82.357 E0.3835
G1 X64.008 Y82.655 E0.3937
G1 X63.784 Y83.066 E0.4063
; feature outer perimeter
G1 X64.340 Y83.300 F4800
G92 E0.0000
G1 X64.235 Y83.639 E0.0096 F600
G1 X64.201 Y83.914 E0.0170
G1 X64.219 Y84.269 E0.0266
G1 X64.307 Y84.616 E0.0362
G1 X64.463 Y84.939 E0.0459
G1 X64.679 Y85.225 E0.0556
G1 X64.948 Y85.463 E0.0652
G1 X65.259 Y85.642 E0.0749
G1 X65.599 Y85.756 E0.0846
G1 X65.955 Y85.801 E0.0942
G1 X66.313 Y85.774 E0.1039
G1 X66.658 Y85.677 E0.1136
G1 X66.977 Y85.513 E0.1232
G1 X67.261 Y85.287 E0.1330
G1 X67.532 Y84.947 E0.1447
G1 X67.661 Y84.696 E0.1523
G1 X67.766 Y84.357 E0.1619
G1 X67.802 Y84.000 E0.1715
G1 X67.766 Y83.643 E0.1812
G1 X67.660 Y83.300 E0.1909
G1 X67.488 Y82.985 E0.2005
G1 X67.258 Y82.710 E0.2102
G1 X66.977 Y82.487 E0.2199
G1 X66.658 Y82.323 E0.2295
G1 X66.313 Y82.226 E0.2392
G1 X65.955 Y82.199 E0.2489
G1 X65.599 Y82.244 E0.2585
G1 X65.259 Y82.358 E0.2682
